M109 S210.000000
;Machine Type:WBSH155L
;Sliced at: Fri 27-11-2020 10:53:30
;Basic settings: Layer height: 0.15 Walls: 0.8 Fill: 15
;Print time: 28 minutes
;Filament used: 1.11m 2.0g
;Filament cost: None
G21        ;metric values
G90        ;absolute positioning
M82        ;set extruder to absolute mode
M107       ;start with the fan off
G28 X0 Y0
G28 Z0
G1 F6000 Z0.3
G92 E0
G1 F200 X30 E8
G92 E0
M117 roma.gcode

;Layer count: 205
;LAYER:0
M107
G1 F3600 E-4.00000
G0 F4800 X71.988 Y76.971 Z0.300
;TYPE:WALL-INNER
G1 F2400 E0.00000
G1 F1200 X72.058 Y76.920 E0.00432
G1 X72.569 Y76.698 E0.03212
G1 X73.045 Y76.486 E0.05811
G1 X73.622 Y76.186 E0.09056
G1 X74.103 Y75.963 E0.11701
G1 X74.796 Y75.671 E0.15453
G1 X75.224 Y75.503 E0.17747
G1 X70.344 Y84.769 E0.69994
G1 X70.107 Y85.227 E0.72567
G1 X69.689 Y84.632 E0.76195
G1 X69.505 Y84.277 E0.78189
G1 X69.442 Y84.074 E0.79250
G1 X69.408 Y83.860 E0.80331
G1 X69.399 Y83.629 E0.81484
G1 X69.428 Y83.097 E0.84142
G1 X69.483 Y82.551 E0.86880
G1 X69.571 Y82.038 E0.89477
G1 X69.870 Y81.083 E0.94470
G1 X70.044 Y80.598 E0.97040
G1 X70.233 Y80.102 E0.99688
G1 X70.534 Y79.439 E1.03321
G1 X70.783 Y78.942 E1.06094
G1 X71.077 Y78.464 E1.08894
G1 X71.382 Y78.011 E1.11619
G1 X71.642 Y77.640 E1.13879
G1 X71.881 Y77.210 E1.16333
G1 X71.952 Y77.019 E1.17350
G1 X71.988 Y76.971 E1.17649
G0 F4800 X71.516 Y77.043
;TYPE:WALL-OUTER
G1 F1200 X71.597 Y76.826 E1.18805
G1 X71.703 Y76.684 E1.19689
G1 X71.857 Y76.571 E1.20642
G1 X72.408 Y76.332 E1.23638
G1 X72.871 Y76.125 E1.26168
G1 X73.436 Y75.831 E1.29346
G1 X73.948 Y75.594 E1.32161
G1 X74.637 Y75.304 E1.35890
G1 X75.192 Y75.086 E1.38865
G1 X75.657 Y74.897 E1.41369
G1 X76.078 Y74.733 E1.43623
G1 X75.659 Y75.536 E1.48142
G1 X70.699 Y84.954 E2.01247
G1 X70.203 Y85.915 E2.06642
G1 X70.188 Y85.909 E2.06723
G1 X69.987 Y85.731 E2.08062
G1 X69.681 Y85.327 E2.10591
G1 X69.350 Y84.845 E2.13508
G1 X69.131 Y84.424 E2.15875
G1 X69.051 Y84.166 E2.17223
G1 X69.008 Y83.897 E2.18582
G1 X68.998 Y83.633 E2.19900
G1 X69.030 Y83.062 E2.22753
G1 X69.084 Y82.516 E2.25490
G1 X69.180 Y81.950 E2.28355
G1 X69.317 Y81.449 E2.30946
G1 X69.493 Y80.948 E2.33595
G1 X69.670 Y80.455 E2.36208
G1 X69.859 Y79.959 E2.38857
G1 X70.166 Y79.282 E2.42565
G1 X70.438 Y78.740 E2.45591
G1 X70.732 Y78.261 E2.48395
G1 X71.055 Y77.781 E2.51281
G1 X71.303 Y77.427 E2.53437
G1 X71.516 Y77.043 E2.55628
G0 F4800 X71.923 Y77.297
;TYPE:SKIN
G1 F1200 X73.406 Y78.780 E2.66092
G0 F4800 X73.602 Y78.410
G1 F1200 X72.155 Y76.963 E2.76301
G0 F4800 X72.549 Y76.792
G1 F1200 X73.797 Y78.039 E2.85103
G0 F4800 X73.992 Y77.669
G1 F1200 X72.941 Y76.618 E2.92518
G0 F4800 X73.321 Y76.432
G1 F1200 X74.187 Y77.298 E2.98628
G0 F4800 X74.382 Y76.928
G1 F1200 X73.693 Y76.239 E3.03489
G0 F4800 X71.721 Y77.660
G1 F1200 X73.211 Y79.151 E3.14006
G0 F4800 X73.016 Y79.521
G1 F1200 X71.489 Y77.995 E3.24776
G0 F4800 X71.260 Y78.331
G1 F1200 X72.821 Y79.892 E3.35790
G0 F4800 X72.626 Y80.262
G1 F1200 X71.039 Y78.676 E3.46983
G0 F4800 X70.828 Y79.030
G1 F1200 X72.431 Y80.633 E3.58293
G0 F4800 X72.235 Y81.004
G1 F1200 X70.638 Y79.406 E3.69565
G0 F4800 X70.459 Y79.793
G1 F1200 X72.040 Y81.374 E3.80719
G0 F4800 X71.845 Y81.745
G1 F1200 X70.285 Y80.185 E3.91726
G0 F4800 X70.129 Y80.594
G1 F1200 X71.650 Y82.115 E4.02457
G0 F4800 X71.455 Y82.486
G1 F1200 X69.980 Y81.011 E4.12864
G0 F4800 X69.841 Y81.438
G1 F1200 X71.260 Y82.856 E4.22873
G0 F4800 X71.064 Y83.227
G1 F1200 X69.707 Y81.869 E4.32451
G0 F4800 X69.601 Y82.329
G1 F1200 X70.870 Y83.598 E4.41404
G0 F4800 X70.676 Y83.969
G1 F1200 X69.534 Y82.828 E4.49458
G0 F4800 X69.493 Y83.353
G1 F1200 X70.446 Y84.305 E4.56178
G0 F4800 X69.665 Y84.090
G1 F1200 X69.498 Y83.923 E4.57357
G0 F4800 X69.626 Y83.957
G1 F1200 X70.430 Y84.178 E4.61517
G1 X70.419 Y84.198 E4.61630
G1 X70.167 Y84.676 E4.64326
G1 X70.367 Y84.296 E4.66469
G1 X70.419 Y84.198 E4.67022
G1 X70.167 Y84.676 E4.69718
G1 X70.081 Y84.842 E4.70651
G1 X69.861 Y84.528 E4.72564
G1 X69.690 Y84.198 E4.74418
G1 X69.638 Y84.032 E4.75286
G1 X69.607 Y83.838 E4.76266
G1 X69.626 Y83.957 E4.76867
G0 F4800 X74.268 Y76.889
G1 F1200 X73.733 Y76.354 E4.80642
G1 X74.181 Y76.147 E4.83104
G1 X74.795 Y75.888 E4.86429
G1 X74.268 Y76.889 E4.92072
;LAYER:1
M106 S127
G0 F4800 X78.062 Y74.963 Z0.450
;TYPE:FILL
G1 F1500 X72.622 Y85.302 E5.21215
G1 X72.677 Y85.197 E5.21511
G1 X78.062 Y74.963 E5.50358
G0 F4800 X78.199 Y74.747
;TYPE:WALL-INNER
G1 F1500 X78.415 Y74.721 E5.50901
G1 X77.169 Y77.096 E5.57591
G1 X72.799 Y85.394 E5.80986
G1 X72.458 Y86.054 E5.82839
G1 X72.326 Y86.301 E5.83537
G1 X72.004 Y85.990 E5.84654
G1 X71.877 Y85.896 E5.85048
G1 X71.629 Y85.746 E5.85771
G1 X71.434 Y85.692 E5.86276
G1 X71.355 Y85.660 E5.86489
G1 X70.845 Y85.593 E5.87772
G1 X70.667 Y85.603 E5.88216
G1 X70.488 Y85.578 E5.88667
G1 X70.381 Y85.529 E5.88961
G1 X70.342 Y85.494 E5.89092
G1 X70.046 Y85.090 E5.90341
G1 X69.662 Y84.530 E5.92035
G1 X69.534 Y84.273 E5.92751
G1 X69.472 Y84.077 E5.93264
G1 X69.444 Y83.876 E5.93770
G1 X69.443 Y83.665 E5.94296
G1 X69.503 Y83.134 E5.95629
G1 X69.574 Y82.627 E5.96906
G1 X69.704 Y82.037 E5.98413
G1 X69.843 Y81.547 E5.99684
G1 X70.013 Y81.064 E6.00961
G1 X70.193 Y80.519 E6.02393
G1 X70.337 Y80.163 E6.03351
G1 X70.618 Y79.585 E6.04954
G1 X70.960 Y78.845 E6.06988
G1 X71.511 Y77.966 E6.09576
G1 X71.975 Y77.311 E6.11578
G1 X72.111 Y77.067 E6.12275
G1 X72.223 Y76.960 E6.12661
G1 X73.016 Y76.555 E6.14882
G1 X73.498 Y76.288 E6.16257
G1 X74.184 Y75.943 E6.18172
G1 X74.634 Y75.749 E6.19395
G1 X75.178 Y75.520 E6.20867
G1 X75.698 Y75.301 E6.22275
G1 X76.259 Y75.067 E6.23791
G1 X76.496 Y74.984 E6.24417
G1 X77.026 Y74.871 E6.25769
G1 X77.560 Y74.814 E6.27109
G1 X78.199 Y74.747 E6.28711
G0 F4800 X78.155 Y74.350
;TYPE:WALL-OUTER
G1 F1320 X78.671 Y74.287 E6.30008
G1 X79.120 Y74.242 E6.31134
G1 X73.154 Y85.578 E6.63089
G1 X72.811 Y86.242 E6.64953
G1 X72.571 Y86.694 E6.66230
G1 X72.490 Y86.853 E6.66675
G1 X72.236 Y86.740 E6.67368
G1 X72.121 Y86.660 E6.67718
G1 X71.744 Y86.295 E6.69027
G1 X71.469 Y86.117 E6.69844
G1 X71.253 Y86.050 E6.70408
G1 X70.831 Y85.994 E6.71470
G1 X70.649 Y86.005 E6.71925
G1 X70.420 Y85.972 E6.72502
G1 X70.388 Y85.972 E6.72582
G1 X70.155 Y85.866 E6.73220
G1 X70.045 Y85.765 E6.73593
G1 X69.715 Y85.315 E6.74985
G1 X69.317 Y84.734 E6.76741
G1 X69.163 Y84.425 E6.77603
G1 X69.080 Y84.162 E6.78291
G1 X69.044 Y83.905 E6.78938
G1 X69.043 Y83.647 E6.79581
G1 X69.107 Y83.079 E6.81007
G1 X69.182 Y82.545 E6.82352
G1 X69.313 Y81.948 E6.83877
G1 X69.461 Y81.429 E6.85223
G1 X69.634 Y80.937 E6.86524
G1 X69.823 Y80.365 E6.88027
G1 X70.021 Y79.902 E6.89283
G1 X70.254 Y79.418 E6.90623
G1 X70.453 Y78.959 E6.91871
G1 X70.603 Y78.663 E6.92699
G1 X70.878 Y78.212 E6.94017
G1 X71.176 Y77.747 E6.95394
G1 X71.636 Y77.098 E6.97379
G1 X71.791 Y76.820 E6.98173
G1 X71.988 Y76.632 E6.98852
G1 X72.832 Y76.200 E7.01217
G1 X73.318 Y75.931 E7.02603
G1 X74.011 Y75.582 E7.04538
G1 X74.479 Y75.381 E7.05809
G1 X76.101 Y74.699 E7.10198
G1 X76.390 Y74.598 E7.10962
G1 X76.969 Y74.475 E7.12438
G1 X78.155 Y74.350 E7.15413
G0 F4800 X77.551 Y74.900
;TYPE:SKIN
G1 F1380 X69.627 Y82.824 E7.43367
G0 F4800 X69.546 Y83.471
G1 F1380 X77.794 Y75.223 E7.72464
G0 F4800 X77.728 Y75.854
G1 F1380 X69.548 Y84.035 E8.01323
G0 F4800 X69.707 Y84.441
G1 F1380 X77.101 Y77.047 E8.27407
G0 F4800 X76.474 Y78.240
G1 F1380 X69.932 Y84.782 E8.50486
G0 F4800 X70.164 Y85.115
G1 F1380 X75.847 Y79.433 E8.70533
G0 F4800 X74.130 Y76.058
G1 F1380 X70.794 Y79.395 E8.82303
G0 F4800 X70.307 Y80.447
G1 F1380 X75.126 Y75.628 E8.99303
G0 F4800 X76.100 Y75.219
G1 F1380 X70.011 Y81.309 E9.20786
G0 F4800 X69.768 Y82.118
G1 F1380 X76.909 Y74.977 E9.45978
G0 F4800 X72.940 Y76.682
G1 F1380 X71.515 Y78.108 E9.51006
G0 F4800 X75.219 Y80.626
G1 F1380 X70.405 Y85.441 E9.67991
G0 F4800 X70.893 Y85.518
G1 F1380 X74.592 Y81.819 E9.81040
G0 F4800 X73.966 Y83.011
G1 F1380 X71.390 Y85.587 E9.90128
G0 F4800 X71.791 Y85.751
G1 F1380 X73.338 Y84.204 E9.95585
G0 F4800 X72.711 Y85.397
G1 F1380 X72.119 Y85.989 E9.97673
G0 F4800 X77.810 Y75.442
G1 F1380 X77.494 Y75.023 E9.98983
G1 X78.062 Y74.963 E10.00407
G1 X77.810 Y75.442 E10.01758
;LAYER:2
M106 S255
G0 F4800 X77.797 Y74.779 Z0.600
;TYPE:WALL-INNER
G1 F1800 X79.016 Y74.643 E10.04817
G1 X79.359 Y74.613 E10.05676
G1 X79.910 Y74.599 E10.07051
G1 X80.462 Y74.575 E10.08429
G1 X81.138 Y74.516 E10.10122
G1 X81.312 Y74.502 E10.10557
G1 X79.033 Y78.843 E10.22788
G1 X75.272 Y85.980 E10.42912
G1 X74.749 Y86.309 E10.44453
G1 X74.482 Y86.469 E10.45229
G1 X73.976 Y86.347 E10.46528
G1 X73.753 Y86.341 E10.47084
G1 X73.261 Y86.444 E10.48338
G1 X73.223 Y86.442 E10.48433
G1 X73.165 Y86.448 E10.48579
G1 X73.079 Y86.444 E10.48793
G1 X73.024 Y86.447 E10.48931
G1 X72.892 Y86.428 E10.49263
G1 X72.724 Y86.434 E10.49683
G1 X72.581 Y86.417 E10.50042
G1 X72.467 Y86.358 E10.50362
G1 X72.146 Y85.939 E10.51679
G1 X71.775 Y85.686 E10.52799
G1 X71.304 Y85.521 E10.54044
G1 X71.222 Y85.521 E10.54249
G1 X71.000 Y85.498 E10.54805
G1 X70.802 Y85.503 E10.55299
G1 X70.700 Y85.531 E10.55563
G1 X70.617 Y85.532 E10.55770
G1 X70.418 Y85.527 E10.56267
G1 X70.338 Y85.404 E10.56633
G1 X70.323 Y85.362 E10.56744
G1 X70.041 Y84.956 E10.57977
G1 X69.704 Y84.510 E10.59372
G1 X69.564 Y84.261 E10.60084
G1 X69.514 Y84.090 E10.60529
G1 X69.493 Y83.901 E10.61003
G1 X69.502 Y83.651 E10.61627
G1 X69.581 Y83.144 E10.62907
G1 X69.683 Y82.609 E10.64266
G1 X69.815 Y82.048 E10.65703
G1 X69.974 Y81.533 E10.67048
G1 X70.136 Y81.040 E10.68342
G1 X70.361 Y80.376 E10.70091
G1 X70.659 Y79.806 E10.71696
G1 X70.894 Y79.233 E10.73240
G1 X71.131 Y78.757 E10.74567
G1 X71.419 Y78.252 E10.76017
G1 X71.657 Y77.882 E10.77115
G1 X72.187 Y77.182 E10.79305
G1 X72.354 Y77.016 E10.79892
G1 X73.150 Y76.547 E10.82197
G1 X73.584 Y76.284 E10.83463
G1 X74.066 Y76.027 E10.84825
G1 X74.520 Y75.813 E10.86077
G1 X75.469 Y75.396 E10.88663
G1 X75.954 Y75.178 E10.89989
G1 X76.197 Y75.074 E10.90649
G1 X76.730 Y74.904 E10.92044
G1 X77.261 Y74.827 E10.93383
G1 X77.797 Y74.779 E10.94725
G0 F4800 X77.757 Y74.381
;TYPE:WALL-OUTER
G1 F1500 X78.985 Y74.245 E10.97807
G1 X79.330 Y74.214 E10.98671
G1 X79.896 Y74.199 E11.00084
G1 X80.436 Y74.176 E11.01432
G1 X81.103 Y74.117 E11.03102
G1 X81.701 Y74.069 E11.04599
G1 X82.006 Y74.047 E11.05362
G1 X75.575 Y86.262 E11.39797
G1 X74.967 Y86.645 E11.41589
G1 X74.546 Y86.896 E11.42812
G1 X73.925 Y86.746 E11.44406
G1 X73.779 Y86.742 E11.44770
G1 X73.404 Y86.828 E11.45730
G1 X73.285 Y86.844 E11.46029
G1 X73.238 Y86.843 E11.46147
G1 X73.178 Y86.849 E11.46297
G1 X73.081 Y86.845 E11.46539
G1 X73.006 Y86.849 E11.46727
G1 X72.871 Y86.829 E11.47067
G1 X72.710 Y86.835 E11.47469
G1 X72.462 Y86.805 E11.48092
G1 X72.206 Y86.672 E11.48812
G1 X71.890 Y86.276 E11.50076
G1 X71.857 Y86.226 E11.50225
G1 X71.593 Y86.046 E11.51022
G1 X71.236 Y85.921 E11.51966
G1 X71.200 Y85.921 E11.52055
G1 X70.984 Y85.899 E11.52597
G1 X70.861 Y85.902 E11.52904
G1 X70.753 Y85.931 E11.53183
G1 X70.607 Y85.932 E11.53547
G1 X70.473 Y85.928 E11.53881
G1 X70.454 Y85.929 E11.53929
G1 X70.337 Y85.924 E11.54221
G1 X70.243 Y85.893 E11.54468
G1 X70.131 Y85.819 E11.54803
G1 X69.973 Y85.572 E11.55534
G1 X69.964 Y85.546 E11.55603
G1 X69.365 Y84.724 E11.58140
G1 X69.194 Y84.421 E11.59008
G1 X69.121 Y84.170 E11.59660
G1 X69.093 Y83.911 E11.60310
G1 X69.103 Y83.616 E11.61046
G1 X69.186 Y83.082 E11.62394
G1 X69.293 Y82.518 E11.63826
G1 X69.430 Y81.939 E11.65310
G1 X69.594 Y81.408 E11.66697
G1 X69.756 Y80.913 E11.67996
G1 X69.893 Y80.508 E11.69062
G1 X69.992 Y80.219 E11.69824
G1 X70.297 Y79.635 E11.71468
G1 X70.531 Y79.065 E11.73005
G1 X70.783 Y78.559 E11.74415
G1 X71.070 Y78.054 E11.75864
G1 X71.335 Y77.644 E11.77082
G1 X71.882 Y76.921 E11.79343
G1 X72.118 Y76.691 E11.80165
G1 X72.549 Y76.420 E11.81435
G1 X73.392 Y75.933 E11.83864
G1 X73.888 Y75.668 E11.85267
G1 X74.349 Y75.451 E11.86538
G1 X75.306 Y75.031 E11.89145
G1 X75.787 Y74.814 E11.90461
G1 X76.063 Y74.697 E11.91209
G1 X76.641 Y74.512 E11.92723
G1 X77.223 Y74.428 E11.94190
G1 X77.757 Y74.381 E11.95527
G0 F4800 X77.954 Y74.843
;TYPE:SKIN
G1 F1620 X79.977 Y76.866 E12.02664
G0 F4800 X79.782 Y77.236
G1 F1620 X77.437 Y74.891 E12.10936
G0 F4800 X76.935 Y74.955
G1 F1620 X79.586 Y77.607 E12.20290
G0 F4800 X79.391 Y77.977
G1 F1620 X76.481 Y75.067 E12.30556
G0 F4800 X76.064 Y75.215
G1 F1620 X79.196 Y78.348 E12.41607
G0 F4800 X79.002 Y78.719
G1 F1620 X75.674 Y75.391 E12.53347
G0 F4800 X75.282 Y75.565
G1 F1620 X78.807 Y79.089 E12.65781
G0 F4800 X78.611 Y79.460
G1 F1620 X74.889 Y75.738 E12.78911
G0 F4800 X74.497 Y75.912
G1 F1620 X78.416 Y79.830 E12.92735
G0 F4800 X78.221 Y80.201
G1 F1620 X74.113 Y76.093 E13.07227
G0 F4800 X73.743 Y76.289
G1 F1620 X78.027 Y80.572 E13.22338
G0 F4800 X77.831 Y80.943
G1 F1620 X73.386 Y76.497 E13.38021
G0 F4800 X73.032 Y76.709
G1 F1620 X77.636 Y81.313 E13.54262
G0 F4800 X77.441 Y81.684
G1 F1620 X72.676 Y76.919 E13.71072
G0 F4800 X72.337 Y77.145
G1 F1620 X77.246 Y82.054 E13.88390
G0 F4800 X77.051 Y82.425
G1 F1620 X72.079 Y77.453 E14.05930
G0 F4800 X71.835 Y77.775
G1 F1620 X76.856 Y82.796 E14.23643
G0 F4800 X76.661 Y83.167
G1 F1620 X71.604 Y78.109 E14.41485
G0 F4800 X71.390 Y78.461
G1 F1620 X76.466 Y83.537 E14.59392
G0 F4800 X76.271 Y83.908
G1 F1620 X71.185 Y78.822 E14.77334
G0 F4800 X70.997 Y79.200
G1 F1620 X76.076 Y84.278 E14.95250
G0 F4800 X75.881 Y84.649
G1 F1620 X70.830 Y79.598 E15.13068
G0 F4800 X70.654 Y79.987
G1 F1620 X75.686 Y85.020 E15.30822
G0 F4800 X75.491 Y85.390
G1 F1620 X70.459 Y80.359 E15.48572
G0 F4800 X70.309 Y80.774
G1 F1620 X75.296 Y85.761 E15.66165
G0 F4800 X75.014 Y86.045
G1 F1620 X70.166 Y81.197 E15.83268
G0 F4800 X70.028 Y81.624
G1 F1620 X74.667 Y86.264 E15.99635
G0 F4800 X74.142 Y86.304
G1 F1620 X69.894 Y82.056 E16.14621
G0 F4800 X69.787 Y82.515
G1 F1620 X73.568 Y86.296 E16.27959
G0 F4800 X73.069 Y86.363
G1 F1620 X69.691 Y82.985 E16.39876
G0 F4800 X69.610 Y83.469
G1 F1620 X71.723 Y85.582 E16.47330
G0 F4800 X70.992 Y85.417
G1 F1620 X69.585 Y84.010 E16.52294
G0 F4800 X78.462 Y74.785
G1 F1620 X80.171 Y76.494 E16.58323
G0 F4800 X80.366 Y76.124
G1 F1620 X78.971 Y74.729 E16.63244
G0 F4800 X79.497 Y74.689
G1 F1620 X80.562 Y75.753 E16.66999
G0 F4800 X80.757 Y75.383
G1 F1620 X80.047 Y74.673 E16.69504
G0 F4800 X80.584 Y74.645
G1 F1620 X80.952 Y75.012 E16.70800
;LAYER:3
G0 F4800 X70.919 Y80.680 Z0.750
;TYPE:FILL
G1 F2100 X70.978 Y80.711 E16.70967
G1 X70.866 Y80.653 E16.71281
G1 X70.919 Y80.680 E16.71430
G0 F4800 X70.624 Y80.525
G1 F2100 X70.722 Y80.338 E16.71956
G1 X70.621 Y80.531 E16.72500
G1 X70.624 Y80.525 E16.72516
G0 F4800 X75.679 Y85.886
G1 F2100 X75.395 Y86.064 E16.73352
G1 X76.004 Y85.682 E16.75146
G1 X75.679 Y85.886 E16.76103
G0 F4800 X75.499 Y86.234
;TYPE:WALL-INNER
G1 F2100 X75.212 Y86.408 E16.76940
G1 X75.175 Y86.415 E16.77034
G1 X74.981 Y86.375 E16.77528
G1 X74.748 Y86.292 E16.78145
G1 X74.558 Y86.217 E16.78655
G1 X74.028 Y86.096 E16.80011
G1 X73.754 Y86.077 E16.80696
G1 X73.458 Y86.136 E16.81449
G1 X73.169 Y86.280 E16.82254
G1 X72.966 Y86.308 E16.82766
G1 X72.932 Y86.306 E16.82851
G1 X72.641 Y86.340 E16.83581
G1 X72.553 Y86.327 E16.83803
G1 X72.525 Y86.291 E16.83917
G1 X72.509 Y86.252 E16.84022
G1 X72.484 Y86.220 E16.84123
G1 X72.400 Y86.015 E16.84676
G1 X72.255 Y85.820 E16.85282
G1 X72.001 Y85.605 E16.86112
G1 X71.640 Y85.454 E16.87089
G1 X71.229 Y85.368 E16.88136
G1 X70.996 Y85.364 E16.88717
G1 X70.905 Y85.371 E16.88945
G1 X70.796 Y85.367 E16.89217
G1 X70.472 Y85.452 E16.90053
G1 X70.436 Y85.401 E16.90208
G1 X70.399 Y85.305 E16.90465
G1 X70.167 Y85.020 E16.91382
G1 X70.151 Y84.990 E16.91466
G1 X69.847 Y84.609 E16.92682
G1 X69.718 Y84.427 E16.93239
G1 X69.626 Y84.261 E16.93712
G1 X69.581 Y84.097 E16.94136
G1 X69.561 Y83.901 E16.94628
G1 X69.568 Y83.692 E16.95150
G1 X69.656 Y83.172 E16.96465
G1 X69.761 Y82.677 E16.97727
G1 X69.888 Y82.156 E16.99065
G1 X70.085 Y81.517 E17.00733
G1 X70.283 Y80.923 E17.02295
G1 X70.436 Y80.453 E17.03528
G1 X70.730 Y79.894 E17.05104
G1 X71.030 Y79.181 E17.07033
G1 X71.338 Y78.576 E17.08727
G1 X71.595 Y78.098 E17.10080
G1 X71.791 Y77.807 E17.10956
G1 X72.135 Y77.390 E17.12304
G1 X72.563 Y76.988 E17.13769
G1 X73.228 Y76.578 E17.15718
G1 X73.727 Y76.255 E17.17200
G1 X74.419 Y75.876 E17.19169
G1 X75.004 Y75.618 E17.20763
G1 X75.564 Y75.357 E17.22305
G1 X76.074 Y75.121 E17.23706
G1 X76.494 Y74.946 E17.24842
G1 X76.943 Y74.852 E17.25986
G1 X77.445 Y74.801 E17.27245
G1 X77.974 Y74.760 E17.28568
G1 X78.573 Y74.681 E17.30075
G1 X79.116 Y74.625 E17.31437
G1 X80.393 Y74.579 E17.34624
G1 X81.029 Y74.532 E17.36215
G1 X81.695 Y74.477 E17.37882
G1 X82.276 Y74.435 E17.39335
G1 X82.858 Y74.405 E17.40789
G1 X82.977 Y74.402 E17.41086
G1 X83.587 Y74.412 E17.42608
G1 X84.126 Y74.436 E17.43954
G1 X80.897 Y80.590 E17.61290
G1 X79.122 Y83.961 E17.70793
G1 X75.499 Y86.234 E17.81462
G0 F4800 X75.270 Y86.805
;TYPE:WALL-OUTER
G1 F1620 X75.206 Y86.825 E17.81630
G1 X75.192 Y86.827 E17.81665
G1 X74.900 Y86.766 E17.82409
G1 X74.435 Y86.598 E17.83642
G1 X73.977 Y86.493 E17.84814
G1 X73.780 Y86.480 E17.85307
G1 X73.589 Y86.518 E17.85793
G1 X73.302 Y86.660 E17.86592
G1 X72.984 Y86.709 E17.87394
G1 X72.945 Y86.707 E17.87492
G1 X72.634 Y86.743 E17.88273
G1 X72.401 Y86.710 E17.88860
G1 X72.304 Y86.658 E17.89134
G1 X72.179 Y86.497 E17.89643
G1 X72.161 Y86.456 E17.89754
G1 X72.135 Y86.423 E17.89859
G1 X72.049 Y86.214 E17.90423
G1 X71.962 Y86.096 E17.90788
G1 X71.790 Y85.950 E17.91351
G1 X71.521 Y85.838 E17.92078
G1 X71.184 Y85.767 E17.92937
G1 X71.007 Y85.764 E17.93379
G1 X70.911 Y85.772 E17.93619
G1 X70.839 Y85.769 E17.93799
G1 X70.534 Y85.849 E17.94585
G1 X70.490 Y85.852 E17.94695
G1 X70.442 Y85.867 E17.94821
G1 X70.420 Y85.869 E17.94876
G1 X70.311 Y85.850 E17.95152
G1 X70.242 Y85.811 E17.95350
G1 X70.129 Y85.691 E17.95761
G1 X70.049 Y85.509 E17.96257
G1 X69.831 Y85.242 E17.97117
G1 X69.814 Y85.208 E17.97211
G1 X69.384 Y84.647 E17.98975
G1 X69.252 Y84.410 E17.99651
G1 X69.186 Y84.171 E18.00270
G1 X69.160 Y83.913 E18.00917
G1 X69.169 Y83.649 E18.01576
G1 X69.260 Y83.113 E18.02932
G1 X69.374 Y82.577 E18.04299
G1 X69.499 Y82.061 E18.05623
G1 X69.706 Y81.391 E18.07373
G1 X69.903 Y80.798 E18.08931
G1 X70.063 Y80.306 E18.10222
G1 X70.294 Y79.862 E18.11470
G1 X70.663 Y79.024 E18.13754
G1 X70.986 Y78.385 E18.15540
G1 X71.256 Y77.886 E18.16956
G1 X71.479 Y77.557 E18.17947
G1 X71.837 Y77.123 E18.19351
G1 X72.215 Y76.754 E18.20668
G1 X72.418 Y76.598 E18.21307
G1 X73.017 Y76.238 E18.23050
G1 X73.512 Y75.917 E18.24522
G1 X73.958 Y75.663 E18.25802
G1 X74.839 Y75.254 E18.28225
G1 X75.899 Y74.761 E18.31141
G1 X76.375 Y74.563 E18.32427
G1 X76.887 Y74.456 E18.33732
G1 X77.404 Y74.403 E18.35029
G1 X77.932 Y74.362 E18.36350
G1 X78.523 Y74.284 E18.37837
G1 X79.075 Y74.227 E18.39221
G1 X79.602 Y74.200 E18.40537
G1 X80.373 Y74.180 E18.42461
G1 X80.998 Y74.133 E18.44025
G1 X81.662 Y74.078 E18.45687
G1 X82.255 Y74.035 E18.47170
G1 X82.854 Y74.005 E18.48666
G1 X82.975 Y74.002 E18.48968
G1 X83.588 Y74.012 E18.50497
G1 X84.774 Y74.067 E18.53459
G1 X84.357 Y74.855 E18.55683
G1 X79.426 Y84.243 E18.82135
G1 X75.706 Y86.577 E18.93090
G1 X75.390 Y86.768 E18.94011
G1 X75.308 Y86.802 E18.94233
G1 X75.270 Y86.805 E18.94328
G0 F4800 X75.171 Y86.331
;TYPE:SKIN
G1 F1860 X80.679 Y80.823 E19.13759
G0 F4800 X80.052 Y82.015
G1 F1860 X76.654 Y85.414 E19.25748
G0 F4800 X78.172 Y84.461
G1 F1860 X79.427 Y83.207 E19.30173
G0 F4800 X81.305 Y79.632
G1 F1860 X74.736 Y86.201 E19.53347
G0 F4800 X74.296 Y86.075
G1 F1860 X81.931 Y78.440 E19.80282
G0 F4800 X82.557 Y77.248
G1 F1860 X73.805 Y86.000 E20.11157
G0 F4800 X73.021 Y86.218
G1 F1860 X83.183 Y76.057 E20.47004
G0 F4800 X83.735 Y74.939
G1 F1860 X72.537 Y86.137 E20.86508
G0 F4800 X72.327 Y85.781
G1 F1860 X83.514 Y74.594 E21.25973
G0 F4800 X83.060 Y74.483
G1 F1860 X72.018 Y85.524 E21.64925
G0 F4800 X71.612 Y85.365
G1 F1860 X82.472 Y74.505 E22.03237
G0 F4800 X81.865 Y74.546
G1 F1860 X71.125 Y85.286 E22.41125
G0 F4800 X70.504 Y85.342
G1 F1860 X81.253 Y74.592 E22.79047
G0 F4800 X80.640 Y74.640
G1 F1860 X70.265 Y85.014 E23.15646
G0 F4800 X70.019 Y84.695
G1 F1860 X80.043 Y74.671 E23.51008
G0 F4800 X79.456 Y74.692
G1 F1860 X69.778 Y84.370 E23.85150
G0 F4800 X69.645 Y83.937
G1 F1860 X78.850 Y74.732 E24.17623
G0 F4800 X78.208 Y74.809
G1 F1860 X69.714 Y83.303 E24.47588
G0 F4800 X69.864 Y82.587
G1 F1860 X77.583 Y74.869 E24.74817
G0 F4800 X76.955 Y74.930
G1 F1860 X70.079 Y81.807 E24.99076
G0 F4800 X70.348 Y80.972
G1 F1860 X76.146 Y75.173 E25.19531
G0 F4800 X75.089 Y75.666
G1 F1860 X70.773 Y79.981 E25.34755
G0 F4800 X71.234 Y78.954
G1 F1860 X73.987 Y76.202 E25.44466
G0 F4800 X83.382 Y74.609
G1 F1860 X82.979 Y74.602 E25.45471
G1 X83.578 Y74.612 E25.46966
G1 X83.802 Y74.622 E25.47525
G1 X83.617 Y74.975 E25.48519
G1 X83.382 Y74.609 E25.49604
;LAYER:4
G0 F4800 X78.875 Y84.298 Z0.900
;TYPE:FILL
G1 F2400 X76.565 Y85.762 E25.56426
G1 X76.470 Y85.822 E25.56706
G1 X78.875 Y84.298 E25.63809
G0 F4800 X78.982 Y84.467
;TYPE:WALL-INNER
G1 F2400 X76.712 Y85.906 E25.70513
G1 X76.718 Y85.923 E25.70558
G1 X76.260 Y86.215 E25.71913
G1 X75.860 Y86.104 E25.72949
G1 X75.572 Y86.096 E25.73667
G1 X75.307 Y86.134 E25.74335
G1 X75.211 Y86.176 E25.74597
G1 X75.186 Y86.174 E25.74659
G1 X75.124 Y86.158 E25.74819
G1 X74.674 Y85.974 E25.76032
G1 X74.034 Y85.837 E25.77664
G1 X73.728 Y85.813 E25.78430
G1 X73.540 Y85.832 E25.78901
G1 X73.475 Y85.827 E25.79064
G1 X73.024 Y85.933 E25.80220
G1 X72.717 Y86.101 E25.81092
G1 X72.639 Y86.136 E25.81306
G1 X72.623 Y86.042 E25.81544
G1 X72.541 Y85.864 E25.82032
G1 X72.399 Y85.669 E25.82634
G1 X72.163 Y85.484 E25.83382
G1 X71.940 Y85.379 E25.83997
G1 X71.401 Y85.212 E25.85405
G1 X71.227 Y85.167 E25.85853
G1 X70.963 Y85.140 E25.86515
G1 X70.849 Y85.155 E25.86802
G1 X70.766 Y85.148 E25.87010
G1 X70.499 Y85.224 E25.87702
G1 X70.312 Y84.964 E25.88501
G1 X70.213 Y84.872 E25.88838
G1 X70.187 Y84.836 E25.88949
G1 X70.064 Y84.733 E25.89349
G1 X69.834 Y84.438 E25.90282
G1 X69.716 Y84.239 E25.90859
G1 X69.656 Y84.077 E25.91290
G1 X69.640 Y83.990 E25.91511
G1 X69.633 Y83.817 E25.91943
G1 X69.751 Y83.172 E25.93579
G1 X69.866 Y82.613 E25.95002
G1 X70.001 Y82.069 E25.96400
G1 X70.185 Y81.503 E25.97885
G1 X70.377 Y80.921 E25.99414
G1 X70.522 Y80.469 E26.00598
G1 X70.761 Y80.011 E26.01887
G1 X70.982 Y79.556 E26.03148
G1 X71.201 Y79.031 E26.04567
G1 X71.584 Y78.282 E26.06666
G1 X71.847 Y77.846 E26.07936
G1 X71.922 Y77.748 E26.08244
G1 X72.340 Y77.296 E26.09780
G1 X72.717 Y76.979 E26.11008
G1 X72.793 Y76.927 E26.11238
G1 X73.282 Y76.628 E26.12668
G1 X73.713 Y76.337 E26.13965
G1 X74.264 Y75.996 E26.15581
G1 X74.945 Y75.666 E26.17469
G1 X75.506 Y75.401 E26.19017
G1 X75.961 Y75.167 E26.20293
G1 X76.317 Y75.006 E26.21268
G1 X76.899 Y74.848 E26.22772
G1 X78.010 Y74.752 E26.25554
G1 X78.559 Y74.677 E26.26936
G1 X79.112 Y74.614 E26.28324
G1 X79.516 Y74.594 E26.29333
G1 X79.623 Y74.595 E26.29600
G1 X80.165 Y74.586 E26.30953
G1 X80.603 Y74.573 E26.32046
G1 X81.347 Y74.512 E26.33908
G1 X82.046 Y74.457 E26.35657
G1 X82.569 Y74.427 E26.36964
G1 X83.421 Y74.406 E26.39090
G1 X83.438 Y74.405 E26.39132
G1 X83.965 Y74.429 E26.40448
G1 X84.535 Y74.470 E26.41874
G1 X85.147 Y74.513 E26.43404
G1 X85.769 Y74.585 E26.44966
G1 X86.019 Y74.577 E26.45590
G1 X86.421 Y74.598 E26.46594
G1 X86.842 Y74.561 E26.47648
G1 X82.965 Y81.948 E26.68459
G1 X80.299 Y83.643 E26.76340
G1 X78.982 Y84.467 E26.80215
G0 F4800 X79.195 Y84.806
;TYPE:WALL-OUTER
G1 F1800 X77.191 Y86.076 E26.86133
G1 X77.197 Y86.092 E26.86176
G1 X76.325 Y86.648 E26.88756
G1 X75.800 Y86.503 E26.90114
G1 X75.595 Y86.497 E26.90626
G1 X75.424 Y86.521 E26.91057
G1 X75.348 Y86.557 E26.91266
G1 X75.234 Y86.579 E26.91556
G1 X75.124 Y86.570 E26.91831
G1 X74.996 Y86.539 E26.92160
G1 X74.555 Y86.357 E26.93350
G1 X73.976 Y86.234 E26.94826
G1 X73.733 Y86.214 E26.95435
G1 X73.546 Y86.233 E26.95904
G1 X73.507 Y86.230 E26.96001
G1 X73.163 Y86.311 E26.96883
G1 X72.911 Y86.452 E26.97603
G1 X72.830 Y86.489 E26.97825
G1 X72.608 Y86.622 E26.98471
G1 X72.520 Y86.639 E26.98694
G1 X72.401 Y86.626 E26.98993
G1 X72.320 Y86.560 E26.99254
G1 X72.290 Y86.473 E26.99483
G1 X72.238 Y86.161 E27.00272
G1 X72.194 Y86.067 E27.00531
G1 X72.108 Y85.949 E27.00895
G1 X71.952 Y85.827 E27.01389
G1 X71.795 Y85.753 E27.01822
G1 X71.291 Y85.597 E27.03138
G1 X71.156 Y85.562 E27.03486
G1 X70.969 Y85.543 E27.03955
G1 X70.859 Y85.557 E27.04232
G1 X70.806 Y85.553 E27.04364
G1 X70.416 Y85.685 E27.05391
G1 X70.349 Y85.743 E27.05612
G1 X70.343 Y85.720 E27.05672
G1 X70.135 Y85.397 E27.06630
G1 X70.013 Y85.232 E27.07142
G1 X69.914 Y85.140 E27.07479
G1 X69.892 Y85.111 E27.07570
G1 X69.771 Y85.011 E27.07961
G1 X69.504 Y84.667 E27.09048
G1 X69.355 Y84.415 E27.09778
G1 X69.270 Y84.184 E27.10392
G1 X69.242 Y84.039 E27.10760
G1 X69.232 Y83.788 E27.11387
G1 X69.359 Y83.091 E27.13154
G1 X69.472 Y82.540 E27.14557
G1 X69.619 Y81.948 E27.16079
G1 X69.996 Y80.797 E27.19100
G1 X70.150 Y80.319 E27.20353
G1 X70.413 Y79.814 E27.21773
G1 X70.490 Y79.677 E27.22165
G1 X70.613 Y79.400 E27.22921
G1 X70.727 Y79.117 E27.23682
G1 X70.971 Y78.597 E27.25115
G1 X71.234 Y78.088 E27.26544
G1 X71.530 Y77.603 E27.27962
G1 X71.875 Y77.191 E27.29302
G1 X72.162 Y76.919 E27.30289
G1 X72.265 Y76.830 E27.30628
G1 X72.473 Y76.662 E27.31295
G1 X73.065 Y76.291 E27.33038
G1 X73.503 Y75.996 E27.34355
G1 X74.064 Y75.650 E27.35999
G1 X74.233 Y75.556 E27.36482
G1 X75.329 Y75.043 E27.39500
G1 X75.799 Y74.801 E27.40819
G1 X76.174 Y74.631 E27.41846
G1 X76.842 Y74.451 E27.43572
G1 X77.965 Y74.355 E27.46384
G1 X78.514 Y74.280 E27.47766
G1 X79.078 Y74.216 E27.49182
G1 X79.517 Y74.194 E27.50278
G1 X79.622 Y74.195 E27.50540
G1 X80.156 Y74.186 E27.51872
G1 X80.581 Y74.174 E27.52933
G1 X82.023 Y74.057 E27.56542
G1 X82.562 Y74.027 E27.57888
G1 X83.409 Y74.006 E27.60002
G1 X83.429 Y74.005 E27.60052
G1 X83.993 Y74.030 E27.61460
G1 X84.579 Y74.072 E27.62926
G1 X85.182 Y74.115 E27.64434
G1 X85.785 Y74.184 E27.65948
G1 X86.015 Y74.176 E27.66522
G1 X86.407 Y74.197 E27.67501
G1 X87.020 Y74.154 E27.69034
G1 X87.565 Y74.050 E27.70418
G1 X87.260 Y74.626 E27.72044
G1 X83.270 Y82.228 E27.93460
G1 X80.511 Y83.982 E28.01616
G1 X79.195 Y84.806 E28.05489
G0 F4800 X78.992 Y84.366
;TYPE:SKIN
G1 F2100 X72.194 Y77.568 E28.29471
G0 F4800 X72.477 Y77.285
G1 F2100 X79.338 Y84.147 E28.53677
G0 F4800 X79.685 Y83.927
G1 F2100 X72.786 Y77.028 E28.78015
G0 F4800 X73.134 Y76.811
G1 F2100 X80.031 Y83.708 E29.02346
G0 F4800 X80.378 Y83.489
G1 F2100 X73.479 Y76.590 E29.26684
G0 F4800 X73.819 Y76.365
G1 F2100 X80.724 Y83.270 E29.51043
G0 F4800 X81.071 Y83.051
G1 F2100 X74.169 Y76.149 E29.75392
G0 F4800 X74.538 Y75.952
G1 F2100 X81.417 Y82.831 E29.99659
G0 F4800 X81.764 Y82.612
G1 F2100 X74.919 Y75.767 E30.23807
G0 F4800 X75.303 Y75.586
G1 F2100 X82.110 Y82.393 E30.47820
G0 F4800 X82.457 Y82.174
G1 F2100 X75.682 Y75.399 E30.71721
G0 F4800 X76.058 Y75.209
G1 F2100 X82.803 Y81.955 E30.95518
G0 F4800 X83.042 Y81.628
G1 F2100 X76.463 Y75.049 E31.18727
G0 F4800 X76.908 Y74.928
G1 F2100 X83.237 Y81.257 E31.41054
G0 F4800 X83.431 Y80.885
G1 F2100 X77.428 Y74.882 E31.62231
G0 F4800 X77.948 Y74.837
G1 F2100 X83.626 Y80.515 E31.82262
G0 F4800 X83.821 Y80.144
G1 F2100 X78.449 Y74.773 E32.01211
G0 F4800 X78.955 Y74.712
G1 F2100 X84.015 Y79.772 E32.19062
G0 F4800 X84.210 Y79.402
G1 F2100 X79.484 Y74.676 E32.35734
G0 F4800 X71.929 Y77.869
G1 F2100 X78.645 Y84.585 E32.59427
G0 F4800 X78.299 Y84.804
G1 F2100 X71.714 Y78.219 E32.82657
G0 F4800 X71.516 Y78.587
G1 F2100 X77.952 Y85.023 E33.05362
G0 F4800 X77.606 Y85.243
G1 F2100 X71.325 Y78.961 E33.27521
G0 F4800 X71.151 Y79.354
G1 F2100 X77.259 Y85.462 E33.49069
G0 F4800 X76.913 Y85.681
G1 F2100 X70.977 Y79.745 E33.70010
G0 F4800 X70.791 Y80.125
G1 F2100 X76.579 Y85.913 E33.90429
G0 F4800 X76.219 Y86.119
G1 F2100 X70.597 Y80.497 E34.10262
G0 F4800 X70.457 Y80.922
G1 F2100 X75.552 Y86.017 E34.28236
G0 F4800 X74.980 Y86.011
G1 F2100 X70.318 Y81.349 E34.44682
G0 F4800 X70.179 Y81.776
G1 F2100 X74.191 Y85.787 E34.58834
G0 F4800 X73.582 Y85.745
G1 F2100 X70.047 Y82.209 E34.71306
G0 F4800 X69.936 Y82.664
G1 F2100 X73.103 Y85.831 E34.82479
G0 F4800 X72.044 Y85.337
G1 F2100 X69.840 Y83.133 E34.90254
G0 F4800 X69.752 Y83.611
G1 F2100 X71.226 Y85.085 E34.95454
G0 F4800 X70.667 Y85.092
G1 F2100 X69.800 Y84.225 E34.98512
G0 F4800 X80.042 Y74.668
G1 F2100 X84.405 Y79.031 E35.13904
G0 F4800 X84.599 Y78.659
G1 F2100 X80.593 Y74.654 E35.28035
G0 F4800 X81.117 Y74.611
G1 F2100 X84.794 Y78.289 E35.41008
G0 F4800 X84.989 Y77.918
G1 F2100 X81.640 Y74.569 E35.52822
G0 F4800 X82.163 Y74.526
G1 F2100 X85.184 Y77.547 E35.63480
G0 F4800 X85.378 Y77.176
G1 F2100 X82.706 Y74.504 E35.72906
G0 F4800 X83.258 Y74.490
G1 F2100 X85.573 Y76.805 E35.81073
G0 F4800 X85.768 Y76.434
G1 F2100 X83.835 Y74.501 E35.87892
G0 F4800 X84.441 Y74.542
G1 F2100 X85.962 Y76.063 E35.93258
G0 F4800 X86.157 Y75.692
G1 F2100 X85.050 Y74.585 E35.97163
G0 F4800 X85.687 Y74.656
G1 F2100 X86.352 Y75.321 E35.99509
G0 F4800 X86.547 Y74.950
G1 F2100 X86.265 Y74.669 E36.00502
;LAYER:5
G0 F4800 X86.151 Y80.112 Z1.050
;TYPE:FILL
G1 F2400 X81.729 Y82.924 E36.13574
G1 X86.563 Y79.850 E36.27864
G1 X86.151 Y80.112 E36.29082
G0 F4800 X86.933 Y79.682
;TYPE:WALL-INNER
G1 F2400 X86.700 Y80.000 E36.30066
G1 X83.896 Y81.788 E36.38361
G1 X81.820 Y83.104 E36.44493
G1 X81.427 Y83.248 E36.45537
G1 X81.283 Y83.321 E36.45940
G1 X80.803 Y83.504 E36.47221
G1 X80.327 Y83.802 E36.48622
G1 X79.980 Y84.129 E36.49811
G1 X79.783 Y84.404 E36.50655
G1 X79.285 Y84.720 E36.52126
G1 X79.027 Y84.771 E36.52782
G1 X78.779 Y84.876 E36.53454
G1 X78.456 Y85.091 E36.54422
G1 X78.388 Y85.245 E36.54842
G1 X78.335 Y85.324 E36.55079
G1 X76.877 Y86.254 E36.59393
G1 X76.486 Y86.182 E36.60385
G1 X76.063 Y86.046 E36.61493
G1 X75.807 Y85.996 E36.62144
G1 X75.557 Y85.980 E36.62769
G1 X75.539 Y85.982 E36.62814
G1 X75.185 Y85.946 E36.63702
G1 X75.045 Y85.908 E36.64064
G1 X74.508 Y85.726 E36.65478
G1 X73.965 Y85.620 E36.66858
G1 X73.617 Y85.556 E36.67741
G1 X73.305 Y85.538 E36.68520
G1 X72.698 Y85.586 E36.70039
G1 X72.578 Y85.651 E36.70380
G1 X72.465 Y85.526 E36.70800
G1 X71.988 Y85.223 E36.72210
G1 X71.410 Y84.908 E36.73852
G1 X70.942 Y84.708 E36.75121
G1 X70.798 Y84.643 E36.75515
G1 X70.582 Y84.581 E36.76076
G1 X70.417 Y84.581 E36.76487
G1 X70.166 Y84.640 E36.77131
G1 X70.116 Y84.610 E36.77276
G1 X70.077 Y84.568 E36.77419
G1 X69.827 Y84.118 E36.78703
G1 X69.802 Y84.025 E36.78943
G1 X69.779 Y83.858 E36.79364
G1 X69.776 Y83.788 E36.79539
G1 X69.784 Y83.692 E36.79779
G1 X69.783 Y83.664 E36.79849
G1 X69.940 Y82.720 E36.82236
G1 X69.944 Y82.670 E36.82361
G1 X70.147 Y81.882 E36.84391
G1 X70.371 Y81.205 E36.86170
G1 X70.536 Y80.646 E36.87624
G1 X70.601 Y80.463 E36.88108
G1 X70.775 Y80.107 E36.89097
G1 X70.948 Y79.826 E36.89920
G1 X71.215 Y79.226 E36.91558
G1 X71.447 Y78.735 E36.92913
G1 X71.708 Y78.231 E36.94328
G1 X71.980 Y77.793 E36.95615
G1 X72.363 Y77.378 E36.97023
G1 X72.748 Y77.054 E36.98279
G1 X73.195 Y76.771 E36.99598
G1 X73.815 Y76.363 E37.01450
G1 X74.241 Y76.071 E37.02738
G1 X74.777 Y75.776 E37.04264
G1 X75.244 Y75.552 E37.05556
G1 X75.756 Y75.284 E37.06998
G1 X76.213 Y75.051 E37.08277
G1 X76.466 Y74.948 E37.08959
G1 X76.910 Y74.862 E37.10087
G1 X77.427 Y74.806 E37.11384
G1 X78.043 Y74.756 E37.12926
G1 X78.572 Y74.671 E37.14262
G1 X79.082 Y74.611 E37.15543
G1 X79.844 Y74.586 E37.17445
G1 X80.191 Y74.587 E37.18311
G1 X80.745 Y74.565 E37.19694
G1 X81.528 Y74.504 E37.21653
G1 X82.133 Y74.458 E37.23166
G1 X83.354 Y74.415 E37.26214
G1 X83.930 Y74.436 E37.27652
G1 X84.498 Y74.484 E37.29074
G1 X85.363 Y74.569 E37.31242
G1 X86.197 Y74.647 E37.33332
G1 X86.348 Y74.658 E37.33709
G1 X87.016 Y74.633 E37.35377
G1 X87.567 Y74.548 E37.36767
G1 X88.162 Y74.429 E37.38281
G1 X88.494 Y74.394 E37.39114
G1 X88.688 Y74.386 E37.39598
G1 X88.717 Y74.396 E37.39675
G1 X89.039 Y74.938 E37.41247
G1 X89.111 Y75.049 E37.41577
G1 X89.190 Y75.228 E37.42065
G1 X89.186 Y75.260 E37.42146
G1 X89.070 Y75.620 E37.43089
G1 X88.722 Y76.289 E37.44970
G1 X87.728 Y78.157 E37.50249
G1 X87.200 Y79.161 E37.53079
G1 X86.933 Y79.682 E37.54539
G0 F4800 X87.555 Y79.345
;TYPE:WALL-OUTER
G1 F1800 X87.273 Y79.895 E37.56081
G1 X86.979 Y80.296 E37.57321
G1 X82.000 Y83.465 E37.72044
G1 X81.586 Y83.616 E37.73143
G1 X81.448 Y83.685 E37.73528
G1 X80.982 Y83.864 E37.74773
G1 X80.563 Y84.126 E37.76006
G1 X80.494 Y84.184 E37.76231
G1 X80.285 Y84.390 E37.76963
G1 X80.062 Y84.700 E37.77915
G1 X79.437 Y85.098 E37.79763
G1 X79.145 Y85.156 E37.80506
G1 X78.970 Y85.230 E37.80980
G1 X78.775 Y85.360 E37.81565
G1 X78.740 Y85.439 E37.81780
G1 X78.634 Y85.596 E37.82253
G1 X78.635 Y85.607 E37.82280
G1 X76.986 Y86.659 E37.87160
G1 X76.976 Y86.666 E37.87190
G1 X76.736 Y86.642 E37.87792
G1 X76.380 Y86.568 E37.88699
G1 X75.964 Y86.434 E37.89789
G1 X75.756 Y86.393 E37.90318
G1 X75.565 Y86.381 E37.90795
G1 X75.539 Y86.384 E37.90860
G1 X75.110 Y86.341 E37.91936
G1 X74.405 Y86.113 E37.93784
G1 X73.891 Y86.013 E37.95090
G1 X73.568 Y85.954 E37.95910
G1 X73.309 Y85.939 E37.96557
G1 X72.815 Y85.978 E37.97793
G1 X72.701 Y86.040 E37.98117
G1 X72.460 Y86.311 E37.99021
G1 X72.419 Y86.160 E37.99412
G1 X72.317 Y85.958 E37.99976
G1 X72.201 Y85.831 E38.00405
G1 X71.792 Y85.572 E38.01613
G1 X71.235 Y85.268 E38.03196
G1 X70.661 Y85.020 E38.04755
G1 X70.526 Y84.981 E38.05106
G1 X70.463 Y84.981 E38.05263
G1 X70.334 Y85.011 E38.05593
G1 X70.288 Y85.050 E38.05744
G1 X70.188 Y85.089 E38.06012
G1 X70.166 Y85.088 E38.06067
G1 X70.142 Y85.076 E38.06133
G1 X70.093 Y85.069 E38.06257
G1 X69.997 Y85.020 E38.06526
G1 X69.949 Y84.976 E38.06688
G1 X69.862 Y84.924 E38.06941
G1 X69.756 Y84.810 E38.07329
G1 X69.452 Y84.263 E38.08890
G1 X69.381 Y83.899 E38.09816
G1 X69.375 Y83.772 E38.10133
G1 X69.383 Y83.680 E38.10363
G1 X69.382 Y83.642 E38.10458
G1 X69.455 Y83.135 E38.11736
G1 X69.543 Y82.669 E38.12919
G1 X69.547 Y82.613 E38.13059
G1 X69.767 Y81.757 E38.15263
G1 X69.989 Y81.085 E38.17029
G1 X70.159 Y80.513 E38.18517
G1 X70.397 Y79.957 E38.20026
G1 X70.666 Y79.493 E38.21364
G1 X70.963 Y78.811 E38.23220
G1 X71.156 Y78.425 E38.24296
G1 X71.417 Y77.926 E38.25701
G1 X71.754 Y77.433 E38.27190
G1 X71.905 Y77.266 E38.27752
G1 X72.197 Y76.989 E38.28756
G1 X72.507 Y76.734 E38.29757
G1 X72.994 Y76.425 E38.31196
G1 X73.349 Y76.192 E38.32255
G1 X74.029 Y75.732 E38.34303
G1 X74.605 Y75.415 E38.35943
G1 X75.065 Y75.195 E38.37215
G1 X75.575 Y74.927 E38.38652
G1 X76.039 Y74.690 E38.39952
G1 X76.354 Y74.562 E38.40800
G1 X76.850 Y74.466 E38.42061
G1 X77.384 Y74.408 E38.43400
G1 X77.995 Y74.359 E38.44930
G1 X78.525 Y74.273 E38.46269
G1 X79.045 Y74.213 E38.47575
G1 X79.474 Y74.187 E38.48647
G1 X79.497 Y74.188 E38.48704
G1 X79.842 Y74.186 E38.49565
G1 X80.184 Y74.187 E38.50418
G1 X80.722 Y74.166 E38.51761
G1 X82.111 Y74.058 E38.55236
G1 X82.622 Y74.031 E38.56513
G1 X83.359 Y74.015 E38.58352
G1 X83.955 Y74.036 E38.59839
G1 X84.540 Y74.086 E38.61304
G1 X85.391 Y74.170 E38.63437
G1 X86.230 Y74.248 E38.65539
G1 X86.355 Y74.257 E38.65852
G1 X86.978 Y74.234 E38.67407
G1 X87.497 Y74.154 E38.68717
G1 X88.106 Y74.032 E38.70266
G1 X88.741 Y73.983 E38.71855
G1 X88.944 Y74.053 E38.72390
G1 X88.981 Y74.084 E38.72511
G1 X89.041 Y74.159 E38.72750
G1 X89.378 Y74.727 E38.74398
G1 X89.463 Y74.856 E38.74783
G1 X89.590 Y75.145 E38.75571
G1 X89.594 Y75.207 E38.75726
G1 X89.580 Y75.344 E38.76069
G1 X89.441 Y75.774 E38.77197
G1 X89.076 Y76.477 E38.79172
G1 X88.081 Y78.344 E38.84450
G1 X87.555 Y79.345 E38.87271
G0 F4800 X87.378 Y78.650
;TYPE:SKIN
G1 F2100 X85.116 Y80.912 E38.95250
G0 F4800 X83.563 Y81.899
G1 F2100 X88.016 Y77.446 E39.10960
G0 F4800 X88.656 Y76.240
G1 F2100 X82.010 Y82.886 E39.34405
G0 F4800 X80.982 Y83.348
G1 F2100 X89.101 Y75.229 E39.63047
G0 F4800 X88.901 Y74.864
G1 F2100 X79.089 Y84.676 E39.97662
G0 F4800 X77.332 Y85.867
G1 F2100 X88.690 Y74.509 E40.37730
G0 F4800 X88.116 Y74.518
G1 F2100 X76.527 Y86.107 E40.78613
G0 F4800 X76.096 Y85.972
G1 F2100 X87.417 Y74.651 E41.18551
G0 F4800 X86.781 Y74.721
G1 F2100 X75.600 Y85.902 E41.57995
G0 F4800 X75.098 Y85.839
G1 F2100 X86.209 Y74.727 E41.97194
G0 F4800 X85.692 Y74.678
G1 F2100 X74.674 Y85.697 E42.36065
G0 F4800 X74.218 Y85.587
G1 F2100 X85.177 Y74.628 E42.74726
G0 F4800 X84.661 Y74.579
G1 F2100 X73.742 Y85.497 E43.13244
G0 F4800 X73.208 Y85.466
G1 F2100 X84.141 Y74.533 E43.51813
G0 F4800 X83.604 Y74.504
G1 F2100 X72.579 Y85.529 E43.90706
G0 F4800 X72.250 Y85.293
G1 F2100 X83.037 Y74.505 E44.28762
G0 F4800 X82.450 Y74.526
G1 F2100 X71.896 Y85.081 E44.65996
G0 F4800 X71.530 Y84.881
G1 F2100 X81.852 Y74.559 E45.02410
G0 F4800 X81.239 Y74.606
G1 F2100 X71.137 Y84.709 E45.38049
G0 F4800 X70.738 Y84.542
G1 F2100 X80.631 Y74.649 E45.72949
G0 F4800 X80.048 Y74.666
G1 F2100 X70.197 Y84.517 E46.07701
G0 F4800 X69.959 Y84.190
G1 F2100 X79.471 Y74.677 E46.41259
G0 F4800 X78.867 Y74.716
G1 F2100 X69.861 Y83.722 E46.73030
G0 F4800 X69.966 Y83.051
G1 F2100 X78.207 Y74.810 E47.02103
G0 F4800 X77.578 Y74.874
G1 F2100 X70.111 Y82.340 E47.28443
G0 F4800 X70.342 Y81.543
G1 F2100 X76.948 Y74.937 E47.51747
G0 F4800 X76.147 Y75.173
G1 F2100 X70.597 Y80.723 E47.71326
G0 F4800 X71.120 Y79.635
G1 F2100 X74.997 Y75.758 E47.85003
G0 F4800 X73.570 Y76.619
G1 F2100 X71.626 Y78.563 E47.91861
G0 F4800 X70.208 Y84.392
G1 F2100 X70.257 Y84.413 E47.91994
G1 X70.394 Y84.381 E47.92345
G1 X70.224 Y84.421 E47.92781
G1 X70.013 Y84.042 E47.93863
G1 X70.208 Y84.392 E47.94862
;LAYER:6
G0 F4800 X77.961 Y84.838 Z1.200
;TYPE:FILL
G1 F2400 X78.045 Y84.772 E47.95129
G1 X77.755 Y85.000 E47.96049
G1 X77.961 Y84.838 E47.96703
G0 F4800 X82.767 Y82.698
G1 F2400 X84.937 Y81.317 E48.03119
G1 X85.932 Y80.684 E48.06061
G1 X82.767 Y82.698 E48.15419
G0 F4800 X82.686 Y82.904
;TYPE:WALL-INNER
G1 F2400 X82.065 Y83.017 E48.16993
G1 X81.500 Y83.222 E48.18493
G1 X80.979 Y83.444 E48.19905
G1 X80.414 Y83.737 E48.21493
G1 X80.073 Y83.994 E48.22558
G1 X79.701 Y84.408 E48.23947
G1 X79.591 Y84.518 E48.24335
G1 X78.691 Y84.690 E48.26620
G1 X78.494 Y84.758 E48.27140
G1 X78.155 Y84.940 E48.28100
G1 X77.908 Y85.134 E48.28884
G1 X77.706 Y85.478 E48.29879
G1 X77.687 Y85.679 E48.30382
G1 X77.695 Y85.941 E48.31036
G1 X77.769 Y86.107 E48.31490
G1 X77.595 Y86.130 E48.31927
G1 X77.533 Y86.132 E48.32082
G1 X77.084 Y86.172 E48.33207
G1 X76.589 Y86.114 E48.34450
G1 X75.808 Y85.914 E48.36461
G1 X75.311 Y85.811 E48.37727
G1 X75.066 Y85.759 E48.38352
G1 X74.598 Y85.594 E48.39590
G1 X73.666 Y85.392 E48.41969
G1 X73.218 Y85.336 E48.43095
G1 X72.949 Y85.328 E48.43766
G1 X72.528 Y85.387 E48.44827
G1 X72.234 Y85.162 E48.45750
G1 X71.785 Y84.736 E48.47294
G1 X71.497 Y84.581 E48.48110
G1 X70.490 Y84.315 E48.50708
G1 X70.174 Y84.342 E48.51499
G1 X70.018 Y84.028 E48.52374
G1 X69.976 Y83.630 E48.53372
G1 X69.977 Y83.619 E48.53400
G1 X69.971 Y83.496 E48.53707
G1 X69.972 Y83.481 E48.53744
G1 X69.970 Y83.366 E48.54031
G1 X69.996 Y83.078 E48.54753
G1 X69.996 Y82.965 E48.55034
G1 X70.031 Y82.782 E48.55499
G1 X70.044 Y82.603 E48.55947
G1 X70.171 Y82.057 E48.57345
G1 X70.546 Y80.933 E48.60301
G1 X70.623 Y80.615 E48.61117
G1 X70.748 Y80.258 E48.62061
G1 X70.849 Y80.082 E48.62567
G1 X71.053 Y79.786 E48.63464
G1 X71.138 Y79.635 E48.63896
G1 X71.393 Y79.074 E48.65433
G1 X71.642 Y78.574 E48.66826
G1 X71.905 Y78.075 E48.68234
G1 X71.956 Y77.990 E48.68481
G1 X72.241 Y77.612 E48.69662
G1 X72.681 Y77.209 E48.71150
G1 X73.138 Y76.904 E48.72521
G1 X73.616 Y76.601 E48.73932
G1 X74.203 Y76.182 E48.75731
G1 X74.663 Y75.885 E48.77097
G1 X75.209 Y75.595 E48.78640
G1 X75.827 Y75.264 E48.80388
G1 X76.344 Y74.999 E48.81838
G1 X76.853 Y74.903 E48.83130
G1 X77.188 Y74.849 E48.83976
G1 X78.012 Y74.768 E48.86041
G1 X78.530 Y74.673 E48.87355
G1 X79.159 Y74.597 E48.88936
G1 X79.428 Y74.585 E48.89607
G1 X79.585 Y74.588 E48.89999
G1 X79.725 Y74.587 E48.90348
G1 X80.032 Y74.590 E48.91114
G1 X80.652 Y74.577 E48.92661
G1 X81.245 Y74.539 E48.94143
G1 X81.750 Y74.492 E48.95408
G1 X82.438 Y74.449 E48.97128
G1 X83.151 Y74.425 E48.98908
G1 X83.304 Y74.424 E48.99289
G1 X83.887 Y74.445 E49.00745
G1 X84.411 Y74.490 E49.02057
G1 X84.936 Y74.559 E49.03377
G1 X85.315 Y74.594 E49.04327
G1 X85.887 Y74.700 E49.05778
G1 X86.486 Y74.748 E49.07277
G1 X87.534 Y74.666 E49.09899
G1 X87.651 Y74.630 E49.10205
G1 X88.159 Y74.552 E49.11487
G1 X88.381 Y74.549 E49.12040
G1 X88.493 Y74.590 E49.12338
G1 X88.662 Y74.780 E49.12972
G1 X88.927 Y75.153 E49.14114
G1 X88.960 Y75.244 E49.14355
G1 X88.965 Y75.304 E49.14505
G1 X88.962 Y75.348 E49.14615
G1 X88.823 Y75.806 E49.15809
G1 X88.694 Y76.125 E49.16668
G1 X88.468 Y76.586 E49.17948
G1 X88.251 Y77.062 E49.19253
G1 X88.068 Y77.511 E49.20463
G1 X87.829 Y77.969 E49.21751
G1 X87.306 Y78.892 E49.24398
G1 X87.067 Y79.327 E49.25636
G1 X86.796 Y79.757 E49.26904
G1 X86.499 Y80.166 E49.28165
G1 X86.159 Y80.687 E49.29717
G1 X86.084 Y80.825 E49.30108
G1 X85.324 Y81.307 E49.32353
G1 X84.141 Y82.062 E49.35854
G1 X83.263 Y82.619 E49.38448
G1 X82.832 Y82.893 E49.39722
G1 X82.686 Y82.904 E49.40087
G0 F4800 X82.737 Y83.301
;TYPE:WALL-OUTER
G1 F1800 X82.170 Y83.404 E49.41525
G1 X81.647 Y83.594 E49.42913
G1 X81.150 Y83.806 E49.44261
G1 X80.633 Y84.074 E49.45713
G1 X80.342 Y84.293 E49.46622
G1 X79.994 Y84.680 E49.47920
G1 X79.827 Y84.847 E49.48509
G1 X79.795 Y84.870 E49.48607
G1 X79.733 Y84.899 E49.48778
G1 X78.794 Y85.077 E49.51162
G1 X78.655 Y85.125 E49.51529
G1 X78.375 Y85.276 E49.52323
G1 X78.215 Y85.402 E49.52831
G1 X78.096 Y85.604 E49.53415
G1 X78.088 Y85.692 E49.53636
G1 X78.092 Y85.850 E49.54030
G1 X78.197 Y86.085 E49.54672
G1 X78.309 Y86.248 E49.55166
G1 X77.955 Y86.474 E49.56213
G1 X77.794 Y86.511 E49.56625
G1 X77.250 Y86.566 E49.57989
G1 X77.071 Y86.572 E49.58436
G1 X76.508 Y86.507 E49.59850
G1 X76.012 Y86.367 E49.61135
G1 X75.206 Y86.197 E49.63190
G1 X74.962 Y86.146 E49.63812
G1 X74.483 Y85.977 E49.65079
G1 X74.107 Y85.884 E49.66045
G1 X73.603 Y85.787 E49.67326
G1 X73.187 Y85.735 E49.68371
G1 X72.970 Y85.729 E49.68913
G1 X72.499 Y85.794 E49.70099
G1 X72.417 Y85.784 E49.70305
G1 X72.304 Y85.719 E49.70630
G1 X72.178 Y85.627 E49.71019
G1 X72.156 Y85.615 E49.71082
G1 X71.814 Y85.316 E49.72215
G1 X71.806 Y85.309 E49.72242
G1 X71.553 Y85.065 E49.73118
G1 X71.352 Y84.957 E49.73688
G1 X70.453 Y84.720 E49.76007
G1 X70.207 Y84.741 E49.76623
G1 X70.108 Y84.771 E49.76881
G1 X69.959 Y84.747 E49.77257
G1 X69.884 Y84.658 E49.77547
G1 X69.631 Y84.148 E49.78968
G1 X69.622 Y84.115 E49.79053
G1 X69.575 Y83.642 E49.80239
G1 X69.576 Y83.616 E49.80304
G1 X69.570 Y83.486 E49.80628
G1 X69.572 Y83.468 E49.80673
G1 X69.570 Y83.346 E49.80978
G1 X69.596 Y83.060 E49.81694
G1 X69.596 Y82.926 E49.82028
G1 X69.634 Y82.731 E49.82524
G1 X69.647 Y82.546 E49.82987
G1 X69.788 Y81.938 E49.84543
G1 X70.161 Y80.823 E49.87476
G1 X70.236 Y80.512 E49.88274
G1 X70.382 Y80.094 E49.89379
G1 X70.526 Y79.845 E49.90096
G1 X70.781 Y79.453 E49.91263
G1 X70.966 Y79.044 E49.92383
G1 X71.217 Y78.525 E49.93821
G1 X71.550 Y77.889 E49.95612
G1 X71.775 Y77.549 E49.96629
G1 X71.943 Y77.344 E49.97290
G1 X72.235 Y77.060 E49.98306
G1 X72.660 Y76.729 E49.99650
G1 X73.134 Y76.440 E50.01035
G1 X73.761 Y76.015 E50.02924
G1 X74.034 Y75.810 E50.03776
G1 X74.474 Y75.532 E50.05074
G1 X75.026 Y75.239 E50.06633
G1 X75.632 Y74.915 E50.08347
G1 X76.203 Y74.622 E50.09948
G1 X76.470 Y74.554 E50.10635
G1 X77.019 Y74.470 E50.12021
G1 X77.957 Y74.371 E50.14374
G1 X78.469 Y74.278 E50.15672
G1 X79.124 Y74.199 E50.17317
G1 X79.433 Y74.185 E50.18089
G1 X79.587 Y74.188 E50.18473
G1 X79.726 Y74.187 E50.18820
G1 X80.029 Y74.190 E50.19576
G1 X80.635 Y74.177 E50.21088
G1 X81.214 Y74.140 E50.22535
G1 X81.725 Y74.093 E50.23815
G1 X82.428 Y74.049 E50.25572
G1 X83.138 Y74.025 E50.27344
G1 X83.316 Y74.024 E50.27788
G1 X83.914 Y74.045 E50.29281
G1 X84.451 Y74.092 E50.30626
G1 X84.981 Y74.162 E50.31959
G1 X85.370 Y74.198 E50.32934
G1 X85.940 Y74.303 E50.34380
G1 X86.487 Y74.347 E50.35748
G1 X87.458 Y74.271 E50.38178
G1 X87.849 Y74.188 E50.39175
G1 X88.128 Y74.153 E50.39877
G1 X88.448 Y74.147 E50.40675
G1 X88.646 Y74.221 E50.41202
G1 X88.667 Y74.219 E50.41255
G1 X88.735 Y74.260 E50.41453
G1 X88.975 Y74.529 E50.42352
G1 X89.283 Y74.963 E50.43680
G1 X89.355 Y75.160 E50.44203
G1 X89.366 Y75.299 E50.44551
G1 X89.358 Y75.422 E50.44858
G1 X89.202 Y75.934 E50.46193
G1 X89.060 Y76.287 E50.47143
G1 X88.829 Y76.757 E50.48449
G1 X88.618 Y77.221 E50.49720
G1 X88.428 Y77.686 E50.50973
G1 X88.182 Y78.157 E50.52299
G1 X87.930 Y78.598 E50.53566
G1 X87.656 Y79.086 E50.54962
G1 X87.414 Y79.528 E50.56219
G1 X87.136 Y79.969 E50.57520
G1 X86.828 Y80.393 E50.58827
G1 X86.503 Y80.892 E50.60312
G1 X86.385 Y81.107 E50.60924
G1 X82.962 Y83.285 E50.71045
G1 X82.737 Y83.301 E50.71607
G0 F4800 X82.561 Y82.844
;TYPE:SKIN
G1 F2100 X75.334 Y75.617 E50.97103
G0 F4800 X74.966 Y75.814
G1 F2100 X82.082 Y82.930 E51.22206
G0 F4800 X81.662 Y83.076
G1 F2100 X74.604 Y76.018 E51.47105
G0 F4800 X74.260 Y76.240
G1 F2100 X81.257 Y83.237 E51.71789
G0 F4800 X80.866 Y83.411
G1 F2100 X73.930 Y76.475 E51.96258
G0 F4800 X73.597 Y76.708
G1 F2100 X80.493 Y83.604 E52.20585
G0 F4800 X80.154 Y83.831
G1 F2100 X73.250 Y76.927 E52.44941
G0 F4800 X72.909 Y77.152
G1 F2100 X79.864 Y84.106 E52.69475
G0 F4800 X79.594 Y84.402
G1 F2100 X72.590 Y77.399 E52.94181
G0 F4800 X72.296 Y77.670
G1 F2100 X79.146 Y84.520 E53.18347
G0 F4800 X78.671 Y84.610
G1 F2100 X72.053 Y77.993 E53.41692
G0 F4800 X71.847 Y78.353
G1 F2100 X78.276 Y84.782 E53.64372
G0 F4800 X77.936 Y85.007
G1 F2100 X71.654 Y78.725 E53.86533
G0 F4800 X71.466 Y79.103
G1 F2100 X77.696 Y85.333 E54.08511
G0 F4800 X77.611 Y85.813
G1 F2100 X71.289 Y79.492 E54.30812
G0 F4800 X71.095 Y79.863
G1 F2100 X77.302 Y86.070 E54.52709
G0 F4800 X76.713 Y86.047
G1 F2100 X70.870 Y80.204 E54.73322
G0 F4800 X70.709 Y80.609
G1 F2100 X75.972 Y85.872 E54.91888
G0 F4800 X75.248 Y85.714
G1 F2100 X70.588 Y81.053 E55.08329
G0 F4800 X70.446 Y81.477
G1 F2100 X74.447 Y85.477 E55.22442
G0 F4800 X73.725 Y85.322
G1 F2100 X70.306 Y81.902 E55.34506
G0 F4800 X70.185 Y82.347
G1 F2100 X73.088 Y85.250 E55.44747
G0 F4800 X72.571 Y85.298
G1 F2100 X70.103 Y82.831 E55.53451
G0 F4800 X70.051 Y83.345
G1 F2100 X71.098 Y84.392 E55.57145
G0 F4800 X70.383 Y84.243
G1 F2100 X70.089 Y83.949 E55.58182
G0 F4800 X75.703 Y75.420
G1 F2100 X82.984 Y82.701 E55.83868
G0 F4800 X83.329 Y82.481
G1 F2100 X76.075 Y75.226 E56.09460
G0 F4800 X76.470 Y75.056
G1 F2100 X83.675 Y82.261 E56.34878
G0 F4800 X84.021 Y82.041
G1 F2100 X76.948 Y74.968 E56.59830
G0 F4800 X77.450 Y74.904
G1 F2100 X84.367 Y81.821 E56.84231
G0 F4800 X84.712 Y81.601
G1 F2100 X77.964 Y74.853 E57.08037
G0 F4800 X78.446 Y74.769
G1 F2100 X85.058 Y81.381 E57.31362
G0 F4800 X85.404 Y81.161
G1 F2100 X78.946 Y74.703 E57.54144
G0 F4800 X79.474 Y74.666
G1 F2100 X85.750 Y80.941 E57.76283
G0 F4800 X86.064 Y80.690
G1 F2100 X80.043 Y74.669 E57.97524
G0 F4800 X80.598 Y74.658
G1 F2100 X86.285 Y80.345 E58.17586
G0 F4800 X86.513 Y80.008
G1 F2100 X81.132 Y74.626 E58.36571
G0 F4800 X81.653 Y74.582
G1 F2100 X86.749 Y79.678 E58.54548
G0 F4800 X86.969 Y79.332
G1 F2100 X82.182 Y74.546 E58.71434
G0 F4800 X82.722 Y74.519
G1 F2100 X87.171 Y78.968 E58.87129
G0 F4800 X87.375 Y78.606
G1 F2100 X83.273 Y74.505 E59.01598
G0 F4800 X83.858 Y74.524
G1 F2100 X87.579 Y78.245 E59.14725
G0 F4800 X87.782 Y77.882
G1 F2100 X84.480 Y74.580 E59.26374
G0 F4800 X85.121 Y74.656
G1 F2100 X87.976 Y77.511 E59.36446
G0 F4800 X88.143 Y77.112
G1 F2100 X85.796 Y74.765 E59.44725
G0 F4800 X86.419 Y74.822
G1 F2100 X88.317 Y76.721 E59.51423
G0 F4800 X88.500 Y76.337
G1 F2100 X86.953 Y74.791 E59.56878
G0 F4800 X87.479 Y74.751
G1 F2100 X88.678 Y75.950 E59.61108
G0 F4800 X88.823 Y75.529
G1 F2100 X87.958 Y74.664 E59.64160
;LAYER:7
G0 F4800 X76.088 Y75.362 Z1.350
;TYPE:FILL
G1 F2400 X75.607 Y75.635 E59.65539
G1 X75.255 Y76.303 E59.67423
G1 X74.937 Y76.030 E59.68468
G1 X75.545 Y75.670 E59.70231
G1 X76.088 Y75.362 E59.71788
G0 F4800 X71.590 Y79.130
G1 F2400 X73.104 Y80.644 E59.77129
G1 X71.590 Y79.130 E59.82470
G0 F4800 X71.469 Y79.199
;TYPE:WALL-INNER
G1 F2400 X71.844 Y78.415 E59.84638
G1 X72.089 Y77.971 E59.85903
G1 X72.289 Y77.704 E59.86735
G1 X72.617 Y77.375 E59.87894
G1 X72.923 Y77.145 E59.88849
G1 X73.392 Y76.858 E59.90221
G1 X73.920 Y76.500 E59.91812
G1 X74.165 Y76.309 E59.92587
G1 X74.487 Y76.063 E59.93598
G1 X75.446 Y75.496 E59.96377
G1 X75.989 Y75.188 E59.97934
G1 X76.334 Y75.018 E59.98893
G1 X76.607 Y74.967 E59.99586
G1 X76.805 Y74.947 E60.00083
G1 X77.385 Y74.856 E60.01547
G1 X77.988 Y74.790 E60.03060
G1 X78.512 Y74.674 E60.04399
G1 X79.144 Y74.593 E60.05989
G1 X79.384 Y74.582 E60.06588
G1 X79.982 Y74.599 E60.08080
G1 X80.118 Y74.598 E60.08419
G1 X80.296 Y74.600 E60.08864
G1 X80.885 Y74.575 E60.10334
G1 X81.533 Y74.527 E60.11955
G1 X82.143 Y74.472 E60.13483
G1 X82.766 Y74.436 E60.15039
G1 X82.979 Y74.437 E60.15571
G1 X83.269 Y74.433 E60.16294
G1 X83.855 Y74.454 E60.17757
G1 X84.401 Y74.505 E60.19125
G1 X84.951 Y74.579 E60.20509
G1 X85.579 Y74.687 E60.22099
G1 X85.956 Y74.770 E60.23062
G1 X86.607 Y74.841 E60.24695
G1 X87.166 Y74.814 E60.26091
G1 X88.097 Y74.690 E60.28434
G1 X88.288 Y74.703 E60.28912
G1 X88.335 Y74.727 E60.29043
G1 X88.424 Y74.807 E60.29342
G1 X88.474 Y74.881 E60.29565
G1 X88.494 Y74.901 E60.29635
G1 X88.675 Y75.189 E60.30484
G1 X88.710 Y75.268 E60.30699
G1 X88.721 Y75.344 E60.30891
G1 X88.710 Y75.542 E60.31386
G1 X88.662 Y75.708 E60.31817
G1 X88.216 Y76.608 E60.34322
G1 X87.999 Y77.145 E60.35767
G1 X87.797 Y77.681 E60.37196
G1 X87.521 Y78.184 E60.38627
G1 X87.265 Y78.661 E60.39978
G1 X87.053 Y79.124 E60.41248
G1 X86.842 Y79.543 E60.42418
G1 X86.561 Y79.974 E60.43702
G1 X86.218 Y80.430 E60.45125
G1 X85.928 Y80.910 E60.46524
G1 X85.612 Y81.342 E60.47859
G1 X85.382 Y81.585 E60.48694
G1 X85.292 Y81.660 E60.48986
G1 X84.989 Y81.839 E60.49864
G1 X84.527 Y82.054 E60.51135
G1 X84.181 Y82.265 E60.52146
G1 X83.711 Y82.613 E60.53605
G1 X83.643 Y82.677 E60.53838
G1 X83.498 Y82.753 E60.54246
G1 X82.633 Y82.867 E60.56422
G1 X82.137 Y82.981 E60.57692
G1 X81.587 Y83.201 E60.59170
G1 X80.994 Y83.464 E60.60788
G1 X80.482 Y83.717 E60.62212
G1 X80.241 Y83.857 E60.62908
G1 X79.828 Y84.179 E60.64214
G1 X79.647 Y84.357 E60.64847
G1 X79.575 Y84.406 E60.65064
G1 X78.947 Y84.534 E60.66663
G1 X78.410 Y84.663 E60.68041
G1 X77.756 Y84.913 E60.69787
G1 X77.498 Y85.160 E60.70678
G1 X77.341 Y85.480 E60.71568
G1 X77.315 Y85.830 E60.72443
G1 X77.368 Y86.025 E60.72947
G1 X77.186 Y86.057 E60.73408
G1 X77.078 Y86.063 E60.73678
G1 X76.644 Y86.026 E60.74764
G1 X75.596 Y85.794 E60.77442
G1 X75.157 Y85.683 E60.78572
G1 X74.605 Y85.483 E60.80036
G1 X73.979 Y85.296 E60.81666
G1 X73.300 Y85.141 E60.83403
G1 X72.744 Y85.084 E60.84797
G1 X72.621 Y85.081 E60.85104
G1 X72.607 Y85.082 E60.85139
G1 X72.492 Y85.074 E60.85427
G1 X72.346 Y84.934 E60.85931
G1 X72.202 Y84.744 E60.86526
G1 X72.025 Y84.568 E60.87149
G1 X71.851 Y84.430 E60.87703
G1 X71.491 Y84.277 E60.88679
G1 X71.041 Y84.205 E60.89815
G1 X70.611 Y83.943 E60.91071
G1 X70.368 Y83.884 E60.91695
G1 X70.338 Y83.823 E60.91865
G1 X70.299 Y83.683 E60.92227
G1 X70.165 Y83.354 E60.93114
G1 X70.128 Y83.017 E60.93959
G1 X70.141 Y82.557 E60.95107
G1 X70.232 Y82.115 E60.96233
G1 X70.439 Y81.505 E60.97840
G1 X70.636 Y80.906 E60.99413
G1 X70.783 Y80.347 E61.00854
G1 X70.790 Y80.290 E61.00998
G1 X70.803 Y80.251 E61.01100
G1 X70.901 Y80.101 E61.01547
G1 X71.010 Y79.988 E61.01939
G1 X71.168 Y79.768 E61.02615
G1 X71.469 Y79.199 E61.04220
G0 F4800 X70.971 Y79.302
;TYPE:WALL-OUTER
G1 F1800 X71.289 Y78.652 E61.06025
G1 X71.552 Y78.108 E61.07533
G1 X71.754 Y77.753 E61.08552
G1 X71.995 Y77.431 E61.09555
G1 X72.369 Y77.061 E61.10867
G1 X72.707 Y76.808 E61.11920
G1 X73.181 Y76.518 E61.13306
G1 X73.441 Y76.351 E61.14077
G1 X73.913 Y75.998 E61.15548
G1 X74.129 Y75.829 E61.16232
G1 X74.689 Y75.464 E61.17899
G1 X75.801 Y74.834 E61.21087
G1 X76.198 Y74.639 E61.22191
G1 X76.424 Y74.584 E61.22771
G1 X77.322 Y74.461 E61.25032
G1 X77.923 Y74.395 E61.26540
G1 X78.440 Y74.280 E61.27861
G1 X79.107 Y74.195 E61.29539
G1 X79.392 Y74.182 E61.30250
G1 X79.986 Y74.199 E61.31733
G1 X80.120 Y74.198 E61.32067
G1 X80.290 Y74.200 E61.32491
G1 X80.862 Y74.176 E61.33919
G1 X81.500 Y74.128 E61.35515
G1 X82.104 Y74.074 E61.37028
G1 X82.752 Y74.036 E61.38647
G1 X82.977 Y74.037 E61.39208
G1 X83.278 Y74.033 E61.39959
G1 X83.872 Y74.054 E61.41442
G1 X84.460 Y74.109 E61.42915
G1 X84.997 Y74.181 E61.44267
G1 X85.671 Y74.297 E61.45973
G1 X86.021 Y74.375 E61.46867
G1 X86.619 Y74.440 E61.48368
G1 X87.128 Y74.415 E61.49639
G1 X88.085 Y74.289 E61.52047
G1 X88.394 Y74.309 E61.52819
G1 X88.562 Y74.393 E61.53288
G1 X88.738 Y74.556 E61.53886
G1 X88.785 Y74.626 E61.54096
G1 X88.818 Y74.660 E61.54215
G1 X89.028 Y75.000 E61.55211
G1 X89.099 Y75.170 E61.55671
G1 X89.123 Y75.326 E61.56065
G1 X89.106 Y75.610 E61.56774
G1 X89.035 Y75.855 E61.57411
G1 X88.818 Y76.307 E61.58661
G1 X88.581 Y76.774 E61.59968
G1 X88.372 Y77.291 E61.61359
G1 X88.163 Y77.843 E61.62831
G1 X87.869 Y78.381 E61.64361
G1 X87.624 Y78.839 E61.65656
G1 X87.410 Y79.304 E61.66933
G1 X87.190 Y79.742 E61.68156
G1 X86.888 Y80.205 E61.69535
G1 X86.550 Y80.654 E61.70937
G1 X86.275 Y81.110 E61.72265
G1 X85.921 Y81.597 E61.73767
G1 X85.652 Y81.881 E61.74743
G1 X85.528 Y81.985 E61.75146
G1 X85.167 Y82.198 E61.76192
G1 X84.716 Y82.407 E61.77432
G1 X84.404 Y82.597 E61.78343
G1 X83.968 Y82.920 E61.79697
G1 X83.876 Y83.006 E61.80011
G1 X83.653 Y83.123 E61.80639
G1 X83.411 Y83.181 E61.81260
G1 X82.701 Y83.262 E61.83042
G1 X82.257 Y83.364 E61.84179
G1 X81.742 Y83.570 E61.85562
G1 X81.164 Y83.826 E61.87139
G1 X80.671 Y84.070 E61.88511
G1 X80.466 Y84.189 E61.89103
G1 X80.092 Y84.480 E61.90285
G1 X79.905 Y84.664 E61.90939
G1 X79.720 Y84.784 E61.91489
G1 X79.028 Y84.926 E61.93252
G1 X78.529 Y85.046 E61.94532
G1 X77.974 Y85.258 E61.96014
G1 X77.826 Y85.399 E61.96524
G1 X77.734 Y85.587 E61.97046
G1 X77.719 Y85.791 E61.97556
G1 X77.853 Y86.282 E61.98826
G1 X77.817 Y86.319 E61.98954
G1 X77.736 Y86.355 E61.99176
G1 X77.237 Y86.455 E62.00445
G1 X77.066 Y86.464 E62.00872
G1 X76.582 Y86.423 E62.02084
G1 X75.515 Y86.186 E62.04810
G1 X75.036 Y86.064 E62.06043
G1 X74.480 Y85.863 E62.07518
G1 X73.877 Y85.683 E62.09088
G1 X73.235 Y85.536 E62.10731
G1 X72.718 Y85.483 E62.12027
G1 X72.628 Y85.481 E62.12252
G1 X72.601 Y85.482 E62.12319
G1 X72.323 Y85.453 E62.13017
G1 X72.299 Y85.443 E62.13081
G1 X72.046 Y85.201 E62.13955
G1 X71.900 Y85.008 E62.14558
G1 X71.758 Y84.867 E62.15058
G1 X71.645 Y84.777 E62.15418
G1 X71.380 Y84.664 E62.16137
G1 X70.924 Y84.592 E62.17288
G1 X70.864 Y84.566 E62.17451
G1 X70.456 Y84.317 E62.18644
G1 X70.251 Y84.268 E62.19169
G1 X70.120 Y84.230 E62.19510
G1 X70.056 Y84.160 E62.19746
G1 X69.960 Y83.957 E62.20306
G1 X69.923 Y83.822 E62.20656
G1 X69.809 Y83.561 E62.21366
G1 X69.774 Y83.444 E62.21671
G1 X69.728 Y83.025 E62.22722
G1 X69.729 Y82.754 E62.23398
G1 X69.744 Y82.502 E62.24028
G1 X69.845 Y82.009 E62.25283
G1 X70.060 Y81.378 E62.26946
G1 X70.252 Y80.793 E62.28482
G1 X70.390 Y80.269 E62.29834
G1 X70.399 Y80.201 E62.30005
G1 X70.435 Y80.090 E62.30296
G1 X70.500 Y79.970 E62.30636
G1 X70.588 Y79.850 E62.31008
G1 X70.703 Y79.731 E62.31420
G1 X70.971 Y79.302 E62.32682
G0 F4800 X71.241 Y79.431
G0 X72.390 Y80.627
;TYPE:SKIN
G1 F2100 X78.190 Y74.827 E62.53143
G0 F4800 X77.532 Y74.920
G1 F2100 X73.020 Y79.432 E62.69061
G0 F4800 X73.649 Y78.237
G1 F2100 X76.869 Y75.016 E62.80422
G0 F4800 X76.098 Y75.222
G1 F2100 X73.796 Y77.524 E62.88543
G0 F4800 X73.673 Y77.081
G1 F2100 X74.763 Y75.992 E62.92386
G0 F4800 X78.876 Y74.707
G1 F2100 X71.760 Y81.822 E63.17488
G0 F4800 X71.396 Y82.187
G1 F2100 X70.245 Y83.338 E63.21548
G0 F4800 X70.401 Y83.747
G1 F2100 X79.485 Y74.664 E63.53593
G0 F4800 X80.036 Y74.678
G1 F2100 X70.769 Y83.945 E63.86285
G0 F4800 X71.140 Y84.140
G1 F2100 X80.614 Y74.666 E64.19707
G0 F4800 X81.216 Y74.630
G1 F2100 X71.607 Y84.239 E64.53605
G0 F4800 X71.981 Y84.430
G1 F2100 X81.832 Y74.579 E64.88357
G0 F4800 X82.442 Y74.534
G1 F2100 X72.273 Y84.704 E65.24233
G0 F4800 X72.546 Y84.997
G1 F2100 X83.027 Y74.515 E65.61209
G0 F4800 X83.584 Y74.524
G1 F2100 X73.072 Y85.036 E65.98293
G0 F4800 X73.557 Y85.117
G1 F2100 X84.116 Y74.558 E66.35543
G0 F4800 X84.625 Y74.615
G1 F2100 X74.017 Y85.222 E66.72964
G0 F4800 X74.452 Y85.353
G1 F2100 X85.117 Y74.688 E67.10587
G0 F4800 X85.599 Y74.772
G1 F2100 X74.875 Y85.496 E67.48419
G0 F4800 X75.300 Y85.636
G1 F2100 X86.073 Y74.863 E67.86424
G0 F4800 X86.583 Y74.919
G1 F2100 X75.755 Y85.747 E68.24623
G0 F4800 X76.219 Y85.849
G1 F2100 X87.176 Y74.892 E68.63276
G0 F4800 X87.829 Y74.805
G1 F2100 X77.839 Y84.795 E68.98519
G0 F4800 X77.345 Y85.289
G1 F2100 X76.685 Y85.948 E69.00845
G0 F4800 X77.759 Y84.916
G0 X78.685 Y84.514
G1 F2100 X88.350 Y74.849 E69.34941
G0 F4800 X88.579 Y75.186
G1 F2100 X79.407 Y84.358 E69.67298
G0 F4800 X71.160 Y81.857
G1 F2100 X70.214 Y82.803 E69.70635
G0 F4800 X70.307 Y82.144
G1 F2100 X70.502 Y81.950 E69.71321
G0 F4800 X71.023 Y81.872
G1 F2100 X71.443 Y82.459 E69.73122
G1 X71.049 Y81.909 E69.74810
G1 X70.450 Y82.093 E69.76373
G1 X70.629 Y81.568 E69.77756
G1 X70.828 Y80.963 E69.79345
G1 X70.980 Y80.385 E69.80836
G1 X70.986 Y80.335 E69.80961
G1 X71.056 Y80.229 E69.81278
G1 X71.164 Y80.116 E69.81668
G1 X71.338 Y79.874 E69.82412
G1 X71.648 Y79.289 E69.84063
G1 X72.019 Y78.512 E69.86211
G1 X72.258 Y78.079 E69.87445
G1 X72.440 Y77.836 E69.88202
G1 X72.749 Y77.526 E69.89294
G1 X73.034 Y77.311 E69.90185
G1 X73.500 Y77.026 E69.91547
G1 X74.038 Y76.662 E69.93168
G1 X73.656 Y76.921 E69.94319
G1 X74.087 Y77.231 E69.95643
G1 X73.911 Y77.565 E69.96585
G1 X73.716 Y77.726 E69.97216
G1 X73.309 Y78.084 E69.98568
G1 X73.066 Y78.398 E69.99558
G1 X72.567 Y79.106 E70.01719
G1 X72.289 Y79.425 E70.02775
G1 X72.277 Y79.472 E70.02896
G1 X72.186 Y79.654 E70.03403
G1 X72.103 Y79.935 E70.04134
G1 X71.981 Y80.185 E70.04828
G1 X71.757 Y80.479 E70.05750
G1 X71.389 Y80.838 E70.07032
G1 X71.238 Y81.043 E70.07668
G1 X71.155 Y81.223 E70.08162
G1 X71.072 Y81.491 E70.08862
G1 X71.013 Y81.777 E70.09590
G1 X71.023 Y81.872 E70.09829
G0 F4800 X72.593 Y78.298
G1 F2100 X72.745 Y78.096 E70.10459
G1 X72.964 Y77.877 E70.11232
G1 X72.744 Y78.160 E70.12126
G1 X72.400 Y78.648 E70.13615
G1 X72.593 Y78.298 E70.14612
G0 F4800 X80.921 Y83.410
G1 F2100 X88.521 Y75.809 E70.41425
G0 F4800 X88.019 Y76.877
G1 F2100 X81.914 Y82.983 E70.62964
G0 F4800 X82.684 Y82.778
G1 F2100 X87.611 Y77.851 E70.80345
G0 F4800 X87.013 Y79.014
G1 F2100 X83.332 Y82.696 E70.93333
G0 F4800 X84.718 Y81.875
G1 F2100 X86.061 Y80.532 E70.98071
;LAYER:8
G0 F4800 X84.649 Y81.500 Z1.500
;TYPE:FILL
G1 F2400 X84.471 Y81.608 E70.98590
G1 X84.657 Y81.495 E70.99133
G1 X84.649 Y81.500 E70.99156
G0 F4800 X78.740 Y74.963
G1 F2400 X78.661 Y74.855 E70.99490
G1 X78.809 Y74.833 E70.99863
G1 X78.740 Y74.963 E71.00230
G0 F4800 X71.893 Y79.434
G1 F2400 X74.926 Y82.467 E71.10930
G1 X71.893 Y79.434 E71.21630
G0 F4800 X71.346 Y79.726
;TYPE:WALL-INNER
G1 F2400 X71.629 Y79.209 E71.23100
G1 X71.877 Y78.639 E71.24651
G1 X71.939 Y78.499 E71.25033
G1 X72.174 Y78.048 E71.26301
G1 X72.526 Y77.598 E71.27726
G1 X72.766 Y77.376 E71.28542
G1 X73.726 Y76.758 E71.31390
G1 X74.212 Y76.371 E71.32940
G1 X74.598 Y76.070 E71.34161
G1 X74.848 Y75.897 E71.34919
G1 X75.293 Y75.643 E71.36197
G1 X75.773 Y75.352 E71.37598
G1 X76.052 Y75.171 E71.38427
G1 X76.267 Y75.065 E71.39025
G1 X76.457 Y75.012 E71.39517
G1 X77.003 Y74.963 E71.40885
G1 X77.506 Y74.879 E71.42157
G1 X78.065 Y74.783 E71.43572
G1 X78.557 Y74.668 E71.44832
G1 X79.106 Y74.588 E71.46216
G1 X79.349 Y74.576 E71.46823
G1 X80.247 Y74.620 E71.49066
G1 X80.883 Y74.586 E71.50654
G1 X81.459 Y74.544 E71.52095
G1 X82.095 Y74.483 E71.53689
G1 X82.665 Y74.441 E71.55115
G1 X82.839 Y74.435 E71.55549
G1 X83.514 Y74.451 E71.57233
G1 X84.375 Y74.517 E71.59387
G1 X84.926 Y74.600 E71.60777
G1 X85.470 Y74.711 E71.62162
G1 X86.056 Y74.848 E71.63663
G1 X86.179 Y74.855 E71.63971
G1 X86.729 Y74.932 E71.65356
G1 X87.357 Y74.916 E71.66923
G1 X87.905 Y74.846 E71.68301
G1 X88.050 Y74.832 E71.68665
G1 X88.235 Y74.841 E71.69127
G1 X88.281 Y74.878 E71.69274
G1 X88.337 Y74.953 E71.69507
G1 X88.418 Y75.128 E71.69988
G1 X88.482 Y75.365 E71.70601
G1 X88.493 Y75.473 E71.70872
G1 X88.480 Y75.593 E71.71173
G1 X88.384 Y75.824 E71.71797
G1 X88.149 Y76.256 E71.73023
G1 X87.918 Y76.793 E71.74482
G1 X87.723 Y77.325 E71.75895
G1 X87.555 Y77.745 E71.77023
G1 X87.295 Y78.212 E71.78357
G1 X87.113 Y78.579 E71.79379
G1 X86.906 Y79.115 E71.80812
G1 X86.682 Y79.626 E71.82204
G1 X86.364 Y80.108 E71.83644
G1 X86.068 Y80.514 E71.84898
G1 X85.456 Y81.295 E71.87373
G1 X85.361 Y81.383 E71.87696
G1 X85.255 Y81.454 E71.88014
G1 X84.749 Y81.673 E71.89389
G1 X84.582 Y81.774 E71.89876
G1 X84.224 Y82.039 E71.90987
G1 X83.860 Y82.388 E71.92245
G1 X83.569 Y82.627 E71.93185
G1 X83.420 Y82.705 E71.93604
G1 X83.339 Y82.729 E71.93815
G1 X82.337 Y82.904 E71.96352
G1 X82.018 Y83.015 E71.97195
G1 X81.535 Y83.252 E71.98537
G1 X80.565 Y83.693 E72.01195
G1 X80.044 Y83.980 E72.02679
G1 X79.929 Y84.051 E72.03016
G1 X79.628 Y84.286 E72.03968
G1 X79.552 Y84.327 E72.04184
G1 X78.876 Y84.480 E72.05913
G1 X78.332 Y84.594 E72.07299
G1 X77.804 Y84.751 E72.08673
G1 X77.680 Y84.794 E72.09001
G1 X77.420 Y84.924 E72.09726
G1 X77.168 Y85.176 E72.10615
G1 X77.017 Y85.553 E72.11628
G1 X77.036 Y85.914 E72.12530
G1 X76.919 Y85.928 E72.12823
G1 X76.751 Y85.924 E72.13243
G1 X76.738 Y85.925 E72.13275
G1 X76.305 Y85.872 E72.14363
G1 X75.811 Y85.757 E72.15629
G1 X75.336 Y85.647 E72.16845
G1 X74.597 Y85.373 E72.18811
G1 X73.984 Y85.144 E72.20443
G1 X73.374 Y84.953 E72.22038
G1 X72.763 Y84.806 E72.23605
G1 X72.586 Y84.741 E72.24076
G1 X72.549 Y84.712 E72.24193
G1 X72.508 Y84.659 E72.24360
G1 X72.074 Y84.271 E72.25812
G1 X71.736 Y84.089 E72.26770
G1 X71.164 Y83.949 E72.28239
G1 X71.128 Y83.929 E72.28342
G1 X71.033 Y83.845 E72.28658
G1 X70.813 Y83.573 E72.29531
G1 X70.666 Y83.443 E72.30020
G1 X70.532 Y83.350 E72.30427
G1 X70.407 Y83.240 E72.30842
G1 X70.311 Y83.090 E72.31287
G1 X70.283 Y82.999 E72.31524
G1 X70.237 Y82.731 E72.32203
G1 X70.244 Y82.620 E72.32480
G1 X70.232 Y82.486 E72.32816
G1 X70.256 Y82.314 E72.33249
G1 X70.410 Y81.800 E72.34587
G1 X70.601 Y81.280 E72.35969
G1 X70.797 Y80.602 E72.37730
G1 X70.895 Y80.242 E72.38660
G1 X70.984 Y80.148 E72.38983
G1 X70.995 Y80.130 E72.39036
G1 X71.058 Y80.085 E72.39229
G1 X71.346 Y79.726 E72.40377
G0 F4800 X70.784 Y79.789
;TYPE:WALL-OUTER
G1 F1800 X71.017 Y79.499 E72.41305
G1 X71.270 Y79.033 E72.42628
G1 X71.511 Y78.477 E72.44139
G1 X71.691 Y78.089 E72.45206
G1 X71.828 Y77.847 E72.45900
G1 X71.906 Y77.727 E72.46257
G1 X72.241 Y77.318 E72.47576
G1 X72.527 Y77.055 E72.48545
G1 X72.991 Y76.754 E72.49925
G1 X73.494 Y76.432 E72.51415
G1 X73.951 Y76.068 E72.52872
G1 X74.365 Y75.745 E72.54182
G1 X74.641 Y75.554 E72.55019
G1 X75.090 Y75.298 E72.56308
G1 X75.560 Y75.013 E72.57680
G1 X75.859 Y74.820 E72.58567
G1 X76.121 Y74.691 E72.59296
G1 X76.390 Y74.616 E72.59992
G1 X76.813 Y74.586 E72.61050
G1 X77.985 Y74.391 E72.64014
G1 X78.489 Y74.273 E72.65305
G1 X79.061 Y74.191 E72.66747
G1 X79.349 Y74.176 E72.67466
G1 X80.247 Y74.219 E72.69709
G1 X80.858 Y74.187 E72.71235
G1 X81.426 Y74.145 E72.72656
G1 X82.062 Y74.085 E72.74249
G1 X82.650 Y74.041 E72.75720
G1 X82.833 Y74.034 E72.76177
G1 X83.532 Y74.051 E72.77921
G1 X84.411 Y74.119 E72.80120
G1 X85.010 Y74.209 E72.81631
G1 X85.544 Y74.318 E72.82991
G1 X86.112 Y74.451 E72.84446
G1 X86.222 Y74.457 E72.84721
G1 X86.752 Y74.531 E72.86056
G1 X87.326 Y74.517 E72.87488
G1 X87.854 Y74.449 E72.88816
G1 X88.038 Y74.432 E72.89277
G1 X88.361 Y74.451 E72.90084
G1 X88.428 Y74.487 E72.90274
G1 X88.509 Y74.544 E72.90521
G1 X88.577 Y74.606 E72.90750
G1 X88.683 Y74.749 E72.91195
G1 X88.795 Y74.993 E72.91864
G1 X88.877 Y75.294 E72.92642
G1 X88.893 Y75.457 E72.93051
G1 X88.886 Y75.603 E72.93416
G1 X88.863 Y75.712 E72.93693
G1 X88.744 Y75.998 E72.94466
G1 X88.509 Y76.431 E72.95695
G1 X88.290 Y76.941 E72.97080
G1 X88.097 Y77.466 E72.98475
G1 X87.913 Y77.924 E72.99706
G1 X87.649 Y78.398 E73.01060
G1 X87.480 Y78.740 E73.02011
G1 X87.275 Y79.269 E73.03426
G1 X87.046 Y79.795 E73.04858
G1 X86.984 Y79.914 E73.05192
G1 X86.687 Y80.344 E73.06496
G1 X86.387 Y80.755 E73.07765
G1 X85.748 Y81.569 E73.10347
G1 X85.609 Y81.698 E73.10820
G1 X85.447 Y81.807 E73.11307
G1 X84.932 Y82.030 E73.12707
G1 X84.483 Y82.345 E73.14075
G1 X84.128 Y82.685 E73.15301
G1 X83.790 Y82.963 E73.16393
G1 X83.572 Y83.078 E73.17008
G1 X83.431 Y83.119 E73.17374
G1 X82.932 Y83.195 E73.18633
G1 X82.442 Y83.291 E73.19879
G1 X82.172 Y83.385 E73.20592
G1 X81.711 Y83.611 E73.21872
G1 X80.744 Y84.051 E73.24523
G1 X80.246 Y84.325 E73.25940
G1 X79.848 Y84.621 E73.27178
G1 X79.702 Y84.701 E73.27593
G1 X79.431 Y84.778 E73.28296
G1 X78.927 Y84.877 E73.29577
G1 X78.431 Y84.982 E73.30842
G1 X77.927 Y85.132 E73.32154
G1 X77.835 Y85.163 E73.32396
G1 X77.657 Y85.253 E73.32893
G1 X77.509 Y85.401 E73.33415
G1 X77.421 Y85.620 E73.34004
G1 X77.441 Y85.995 E73.34941
G1 X77.440 Y86.129 E73.35275
G1 X77.407 Y86.193 E73.35455
G1 X77.334 Y86.241 E73.35673
G1 X77.085 Y86.314 E73.36320
G1 X76.932 Y86.329 E73.36703
G1 X76.769 Y86.325 E73.37110
G1 X76.737 Y86.328 E73.37190
G1 X76.239 Y86.267 E73.38442
G1 X75.220 Y86.030 E73.41052
G1 X74.454 Y85.747 E73.43089
G1 X73.854 Y85.523 E73.44686
G1 X73.267 Y85.339 E73.46221
G1 X72.651 Y85.191 E73.47801
G1 X72.396 Y85.097 E73.48479
G1 X72.264 Y84.997 E73.48892
G1 X72.214 Y84.933 E73.49095
G1 X71.843 Y84.601 E73.50337
G1 X71.593 Y84.466 E73.51046
G1 X71.266 Y84.389 E73.51884
G1 X71.012 Y84.323 E73.52538
G1 X70.894 Y84.256 E73.52877
G1 X70.736 Y84.114 E73.53407
G1 X70.524 Y83.851 E73.54249
G1 X70.418 Y83.758 E73.54601
G1 X70.277 Y83.659 E73.55031
G1 X70.094 Y83.492 E73.55649
G1 X69.945 Y83.259 E73.56339
G1 X69.894 Y83.093 E73.56772
G1 X69.835 Y82.752 E73.57635
G1 X69.843 Y82.626 E73.57950
G1 X69.829 Y82.478 E73.58321
G1 X69.865 Y82.228 E73.58951
G1 X70.027 Y81.684 E73.60367
G1 X70.221 Y81.155 E73.61772
G1 X70.411 Y80.498 E73.63478
G1 X70.539 Y80.051 E73.64638
G1 X70.621 Y79.940 E73.64983
G1 X70.669 Y79.895 E73.65147
G1 X70.694 Y79.853 E73.65269
G1 X70.784 Y79.789 E73.65544
G0 F4800 X71.014 Y79.981
G0 X75.589 Y79.832
;TYPE:SKIN
G1 F2100 X79.804 Y84.046 E73.80412
G0 F4800 X79.456 Y84.265
G1 F2100 X75.394 Y80.202 E73.94743
G0 F4800 X75.199 Y80.573
G1 F2100 X78.995 Y84.369 E74.08135
G0 F4800 X78.529 Y84.469
G1 F2100 X75.004 Y80.944 E74.20570
G0 F4800 X74.809 Y81.315
G1 F2100 X78.079 Y84.584 E74.32104
G0 F4800 X77.648 Y84.719
G1 F2100 X74.614 Y81.685 E74.42808
G0 F4800 X74.419 Y82.056
G1 F2100 X77.297 Y84.934 E74.52960
G0 F4800 X77.051 Y85.253
G1 F2100 X74.224 Y82.427 E74.62932
G0 F4800 X74.029 Y82.797
G1 F2100 X76.945 Y85.714 E74.73220
G0 F4800 X76.477 Y85.810
G1 F2100 X73.834 Y83.168 E74.82543
G0 F4800 X73.490 Y83.389
G1 F2100 X75.762 Y85.662 E74.90559
G0 F4800 X74.951 Y85.417
G1 F2100 X72.752 Y83.217 E74.98319
G0 F4800 X72.299 Y83.896
G1 F2100 X70.425 Y82.022 E75.04930
G0 F4800 X70.701 Y81.732
G1 F2100 X74.051 Y85.081 E75.16746
G0 F4800 X73.241 Y84.837
G1 F2100 X72.349 Y83.945 E75.19893
G0 F4800 X71.952 Y84.114
G1 F2100 X70.313 Y82.475 E75.25675
G0 F4800 X71.116 Y81.581
G1 F2100 X71.470 Y81.935 E75.26924
G0 F4800 X72.693 Y83.322
G1 F2100 X72.531 Y83.328 E75.27328
G1 X72.432 Y84.323 E75.29822
G1 X72.190 Y84.106 E75.30633
G1 X71.808 Y83.901 E75.31715
G1 X72.088 Y84.051 E75.32507
G1 X72.514 Y83.194 E75.34894
G1 X72.658 Y83.302 E75.35343
G1 X72.952 Y83.471 E75.36189
G1 X72.693 Y83.322 E75.36935
G0 F4800 X71.183 Y81.618
G1 F2100 X71.185 Y81.644 E75.37000
G1 X71.183 Y81.708 E75.37159
G1 X71.184 Y81.685 E75.37217
G1 X70.589 Y81.901 E75.38796
G1 X70.598 Y81.869 E75.38879
G1 X70.791 Y81.342 E75.40279
G1 X70.990 Y80.656 E75.42061
G1 X71.075 Y80.343 E75.42870
G1 X71.144 Y80.270 E75.43120
G1 X71.144 Y80.269 E75.43123
G1 X71.197 Y80.232 E75.43284
G1 X71.513 Y79.837 E75.44546
G1 X71.809 Y79.297 E75.46082
G1 X72.060 Y78.720 E75.47652
G1 X72.122 Y78.580 E75.48033
G1 X72.341 Y78.160 E75.49215
G1 X72.674 Y77.734 E75.50564
G1 X72.891 Y77.533 E75.51302
G1 X73.843 Y76.921 E75.54125
G1 X74.335 Y76.529 E75.55694
G1 X74.721 Y76.228 E75.56915
G1 X74.950 Y76.069 E75.57611
G1 X75.394 Y75.815 E75.58887
G1 X75.879 Y75.521 E75.60301
G1 X76.157 Y75.342 E75.61126
G1 X76.334 Y75.254 E75.61619
G1 X76.496 Y75.209 E75.62039
G1 X77.028 Y75.162 E75.63371
G1 X78.104 Y74.979 E75.66093
G1 X78.047 Y74.989 E75.66238
G1 X78.000 Y75.079 E75.66491
G1 X77.961 Y75.098 E75.66599
G1 X77.750 Y75.177 E75.67161
G1 X77.560 Y75.226 E75.67651
G1 X77.335 Y75.330 E75.68269
G1 X77.228 Y75.407 E75.68598
G1 X76.862 Y75.579 E75.69607
G1 X76.339 Y75.676 E75.70934
G1 X76.154 Y75.754 E75.71434
G1 X75.773 Y76.008 E75.72577
G1 X75.282 Y76.503 E75.74316
G1 X74.942 Y76.784 E75.75416
G1 X74.682 Y77.022 E75.76295
G1 X74.261 Y77.452 E75.77797
G1 X73.572 Y78.079 E75.80120
G1 X73.391 Y78.326 E75.80884
G1 X73.010 Y78.969 E75.82749
G1 X72.965 Y79.029 E75.82936
G1 X72.726 Y79.386 E75.84008
G1 X72.555 Y79.552 E75.84602
G1 X72.319 Y79.735 E75.85347
G1 X72.061 Y80.208 E75.86691
G1 X71.752 Y80.571 E75.87880
G1 X71.451 Y80.854 E75.88911
G1 X71.315 Y81.043 E75.89492
G1 X71.256 Y81.185 E75.89875
G1 X71.183 Y81.618 E75.90971
G0 F4800 X72.290 Y79.252
G1 F2100 X72.253 Y79.280 E75.91086
G1 X72.426 Y78.882 E75.92169
G1 X72.482 Y78.755 E75.92515
G1 X72.681 Y78.375 E75.93585
G1 X72.969 Y78.006 E75.94753
G1 X73.138 Y77.849 E75.95328
G1 X73.452 Y77.647 E75.96259
G1 X73.273 Y77.810 E75.96863
G1 X73.057 Y78.105 E75.97775
G1 X72.680 Y78.742 E75.99622
G1 X72.639 Y78.798 E75.99795
G1 X72.418 Y79.127 E76.00784
G1 X72.290 Y79.252 E76.01230
G0 F4800 X75.784 Y79.461
G1 F2100 X80.151 Y83.828 E76.16636
G0 F4800 X80.515 Y83.626
G1 F2100 X75.979 Y79.090 E76.32638
G0 F4800 X76.174 Y78.720
G1 F2100 X80.903 Y83.449 E76.49321
G0 F4800 X81.293 Y83.273
G1 F2100 X76.369 Y78.349 E76.66691
G0 F4800 X76.564 Y77.978
G1 F2100 X81.677 Y83.092 E76.84731
G0 F4800 X82.063 Y82.912
G1 F2100 X76.759 Y77.607 E77.03444
G0 F4800 X76.954 Y77.237
G1 F2100 X82.509 Y82.792 E77.23040
G0 F4800 X82.991 Y82.708
G1 F2100 X77.149 Y76.866 E77.43650
G0 F4800 X77.344 Y76.495
G1 F2100 X83.447 Y82.599 E77.65181
G0 F4800 X83.770 Y82.356
G1 F2100 X77.539 Y76.124 E77.87165
G0 F4800 X77.734 Y75.754
G1 F2100 X84.062 Y82.082 E78.09488
G0 F4800 X84.373 Y81.827
G1 F2100 X77.929 Y75.383 E78.32221
G0 F4800 X77.988 Y74.877
G1 F2100 X84.712 Y81.600 E78.55940
G0 F4800 X85.105 Y81.429
G1 F2100 X78.451 Y74.774 E78.79416
G0 F4800 X78.936 Y74.693
G1 F2100 X85.435 Y81.192 E79.02343
G0 F4800 X85.683 Y80.875
G1 F2100 X79.470 Y74.661 E79.24263
G0 F4800 X80.065 Y74.691
G1 F2100 X85.932 Y80.558 E79.44960
G0 F4800 X86.172 Y80.233
G1 F2100 X80.620 Y74.680 E79.64548
G0 F4800 X81.152 Y74.647
G1 F2100 X86.405 Y79.900 E79.83079
G0 F4800 X86.626 Y79.555
G1 F2100 X81.675 Y74.604 E80.00545
G0 F4800 X82.192 Y74.555
G1 F2100 X86.798 Y79.161 E80.16794
G0 F4800 X86.958 Y78.756
G1 F2100 X82.722 Y74.519 E80.31740
G0 F4800 X83.294 Y74.526
G1 F2100 X87.131 Y78.363 E80.45276
G0 F4800 X87.326 Y77.992
G1 F2100 X83.894 Y74.560 E80.57383
G0 F4800 X84.520 Y74.620
G1 F2100 X87.519 Y77.619 E80.67963
G0 F4800 X87.678 Y77.213
G1 F2100 X85.204 Y74.739 E80.76690
G0 F4800 X85.933 Y74.902
G1 F2100 X87.830 Y76.799 E80.83383
G0 F4800 X87.998 Y76.402
G1 F2100 X86.589 Y74.992 E80.88355
G0 F4800 X87.163 Y75.001
G1 F2100 X88.184 Y76.022 E80.91957
G0 F4800 X88.371 Y75.643
G1 F2100 X87.683 Y74.955 E80.94384
G0 F4800 X88.270 Y75.348
G1 F2100 X88.054 Y75.033 E80.95337
G1 X88.150 Y75.037 E80.95576
G1 X88.162 Y75.053 E80.95626
G1 X88.230 Y75.200 E80.96030
G1 X88.285 Y75.401 E80.96550
G1 X88.270 Y75.348 E80.96688
;LAYER:9
G0 F4800 X82.496 Y74.648 Z1.650
;TYPE:FILL
G1 F2400 X81.643 Y74.736 E80.98827
G1 X76.438 Y84.621 E81.26694
G1 X75.816 Y84.518 E81.28267
G1 X75.314 Y84.365 E81.29576
G1 X74.825 Y84.200 E81.30864
G1 X74.270 Y83.968 E81.32364
G1 X73.621 Y83.692 E81.34123
G1 X73.458 Y83.628 E81.34560
G1 X73.298 Y83.586 E81.34973
G1 X72.690 Y83.512 E81.36501
G1 X72.475 Y83.448 E81.37060
G1 X72.285 Y83.349 E81.37595
G1 X71.982 Y83.103 E81.38568
G1 X71.828 Y82.952 E81.39106
G1 X71.468 Y82.508 E81.40532
G1 X71.140 Y82.055 E81.41927
G1 X71.005 Y81.819 E81.42606
G1 X70.961 Y81.675 E81.42981
G1 X70.939 Y81.493 E81.43439
G1 X70.961 Y81.141 E81.44318
G1 X71.001 Y80.960 E81.44781
G1 X71.081 Y80.704 E81.45450
G1 X71.080 Y80.704 E81.45452
G1 X71.176 Y80.420 E81.46200
G1 X71.367 Y80.276 E81.46797
G1 X71.643 Y79.965 E81.47834
G1 X71.842 Y79.616 E81.48836
G1 X72.056 Y79.092 E81.50248
G1 X72.155 Y78.815 E81.50982
G1 X72.255 Y78.565 E81.51654
G1 X72.408 Y78.266 E81.52491
G1 X72.737 Y77.827 E81.53860
G1 X72.963 Y77.614 E81.54635
G1 X73.767 Y77.097 E81.57019
G1 X74.279 Y76.687 E81.58655
G1 X74.665 Y76.352 E81.59930
G1 X75.193 Y75.985 E81.61534
G1 X75.677 Y75.716 E81.62915
G1 X76.175 Y75.371 E81.64427
G1 X76.401 Y75.263 E81.65052
G1 X76.418 Y75.259 E81.65095
G1 X76.662 Y75.248 E81.65704
G1 X77.028 Y75.214 E81.66621
G1 X77.103 Y75.202 E81.66811
G1 X77.117 Y75.201 E81.66846
G1 X77.697 Y75.099 E81.68315
G1 X78.498 Y74.892 E81.70379
G1 X78.925 Y74.815 E81.71461
G1 X79.320 Y74.775 E81.72451
G1 X79.860 Y74.819 E81.73803
G1 X80.212 Y74.832 E81.74681
G1 X80.790 Y74.804 E81.76125
G1 X81.476 Y74.753 E81.77841
G1 X82.496 Y74.648 E81.80399
G0 F4800 X80.815 Y75.203
G1 F2400 X80.950 Y75.193 E81.80736
G1 X76.219 Y84.179 E82.06069
G1 X75.909 Y84.128 E82.06853
G1 X75.431 Y83.982 E82.08099
G1 X74.964 Y83.825 E82.09328
G1 X74.427 Y83.600 E82.10781
G1 X73.772 Y83.322 E82.12556
G1 X73.582 Y83.247 E82.13065
G1 X73.373 Y83.192 E82.13604
G1 X72.770 Y83.119 E82.15120
G1 X72.629 Y83.077 E82.15487
G1 X72.506 Y83.013 E82.15832
G1 X72.249 Y82.804 E82.16659
G1 X72.125 Y82.682 E82.17093
G1 X71.785 Y82.264 E82.18437
G1 X71.475 Y81.836 E82.19755
G1 X71.375 Y81.661 E82.20258
G1 X71.353 Y81.589 E82.20446
G1 X71.340 Y81.481 E82.20717
G1 X71.358 Y81.201 E82.21417
G1 X71.389 Y81.060 E82.21777
G1 X71.474 Y80.788 E82.22488
G1 X71.516 Y80.665 E82.22812
G1 X71.640 Y80.571 E82.23200
G1 X71.970 Y80.199 E82.24441
G1 X72.202 Y79.791 E82.25612
G1 X72.430 Y79.235 E82.27111
G1 X72.532 Y78.950 E82.27866
G1 X72.619 Y78.731 E82.28454
G1 X72.748 Y78.479 E82.29160
G1 X73.037 Y78.093 E82.30363
G1 X73.211 Y77.929 E82.30959
G1 X74.001 Y77.422 E82.33301
G1 X74.535 Y76.994 E82.35008
G1 X74.913 Y76.666 E82.36256
G1 X75.399 Y76.328 E82.37733
G1 X75.889 Y76.056 E82.39131
G1 X76.379 Y75.717 E82.40617
G1 X76.507 Y75.656 E82.40971
G1 X76.690 Y75.647 E82.41428
G1 X77.078 Y75.611 E82.42400
G1 X77.146 Y75.600 E82.42572
G1 X77.166 Y75.599 E82.42622
G1 X77.782 Y75.490 E82.44182
G1 X78.575 Y75.285 E82.46225
G1 X78.985 Y75.211 E82.47265
G1 X79.323 Y75.177 E82.48112
G1 X79.836 Y75.218 E82.49396
G1 X80.214 Y75.232 E82.50339
G1 X80.815 Y75.203 E82.51840
G0 F4800 X80.216 Y75.632
G1 F2400 X80.268 Y75.629 E82.51970
G1 X76.000 Y83.737 E82.74827
G1 X75.548 Y83.599 E82.76006
G1 X75.548 Y83.600 E82.76008
G1 X75.112 Y83.453 E82.77156
G1 X74.582 Y83.231 E82.78589
G1 X73.924 Y82.952 E82.80372
G1 X73.707 Y82.866 E82.80954
G1 X73.448 Y82.798 E82.81622
G1 X72.850 Y82.726 E82.83125
G1 X72.783 Y82.706 E82.83299
G1 X72.723 Y82.675 E82.83468
G1 X72.522 Y82.511 E82.84115
G1 X72.417 Y82.408 E82.84482
G1 X72.109 Y82.029 E82.85700
G1 X71.808 Y81.613 E82.86981
G1 X71.746 Y81.505 E82.87292
G1 X71.745 Y81.503 E82.87297
G1 X71.741 Y81.470 E82.87380
G1 X71.755 Y81.260 E82.87905
G1 X71.777 Y81.160 E82.88160
G1 X71.853 Y80.917 E82.88796
G1 X71.855 Y80.910 E82.88814
G1 X71.913 Y80.866 E82.88995
G1 X72.297 Y80.433 E82.90439
G1 X72.562 Y79.966 E82.91778
G1 X72.804 Y79.378 E82.93365
G1 X72.904 Y79.098 E82.94106
G1 X72.986 Y78.891 E82.94662
G1 X73.088 Y78.692 E82.95220
G1 X73.338 Y78.359 E82.96258
G1 X73.456 Y78.247 E82.96664
G1 X74.235 Y77.747 E82.98973
G1 X74.791 Y77.301 E83.00751
G1 X75.161 Y76.980 E83.01973
G1 X75.605 Y76.671 E83.03322
G1 X76.100 Y76.396 E83.04735
G1 X76.582 Y76.063 E83.06196
G1 X76.606 Y76.052 E83.06262
G1 X76.718 Y76.046 E83.06542
G1 X77.128 Y76.008 E83.07569
G1 X77.188 Y75.999 E83.07720
G1 X77.211 Y75.997 E83.07778
G1 X77.867 Y75.881 E83.09440
G1 X78.652 Y75.678 E83.11462
G1 X79.045 Y75.607 E83.12459
G1 X79.326 Y75.579 E83.13163
G1 X79.813 Y75.617 E83.14382
G1 X80.216 Y75.632 E83.15388
G0 F4800 X79.329 Y75.981
G1 F2400 X79.619 Y76.003 E83.16113
G1 X75.800 Y83.258 E83.36565
G1 X75.638 Y83.208 E83.36988
G1 X75.256 Y83.079 E83.37994
G1 X74.737 Y82.862 E83.39397
G1 X74.076 Y82.582 E83.41188
G1 X73.832 Y82.485 E83.41843
G1 X73.523 Y82.404 E83.42640
G1 X72.938 Y82.334 E83.44109
G1 X72.790 Y82.213 E83.44586
G1 X72.709 Y82.133 E83.44870
G1 X72.428 Y81.788 E83.45980
G1 X72.147 Y81.399 E83.47177
G1 X72.152 Y81.319 E83.47377
G1 X72.165 Y81.260 E83.47528
G1 X72.201 Y81.144 E83.47831
G1 X72.624 Y80.667 E83.49421
G1 X72.922 Y80.142 E83.50927
G1 X73.178 Y79.521 E83.52602
G1 X73.281 Y79.233 E83.53365
G1 X73.351 Y79.055 E83.53843
G1 X73.428 Y78.906 E83.54261
G1 X73.639 Y78.624 E83.55140
G1 X73.701 Y78.565 E83.55353
G1 X74.469 Y78.072 E83.57630
G1 X75.047 Y77.608 E83.59479
G1 X75.409 Y77.294 E83.60674
G1 X75.811 Y77.014 E83.61896
G1 X76.311 Y76.736 E83.63323
G1 X76.731 Y76.446 E83.64596
G1 X76.747 Y76.445 E83.64636
G1 X77.176 Y76.405 E83.65711
G1 X77.244 Y76.395 E83.65882
G1 X77.263 Y76.394 E83.65930
G1 X77.952 Y76.272 E83.67675
G1 X78.729 Y76.071 E83.69677
G1 X79.105 Y76.003 E83.70631
G1 X79.329 Y75.981 E83.71192
G0 F4800 X78.806 Y76.464
G1 F2400 X78.937 Y76.440 E83.71524
G1 X75.603 Y82.774 E83.89380
G1 X75.395 Y82.704 E83.89927
G1 X74.891 Y82.493 E83.91290
G1 X74.228 Y82.212 E83.93086
G1 X73.957 Y82.104 E83.93814
G1 X73.598 Y82.010 E83.94740
G1 X73.101 Y81.951 E83.95988
G1 X73.059 Y81.916 E83.96125
G1 X73.005 Y81.863 E83.96313
G1 X72.738 Y81.535 E83.97368
G1 X72.581 Y81.318 E83.98036
G1 X72.951 Y80.901 E83.99427
G1 X73.282 Y80.318 E84.01099
G1 X73.551 Y79.665 E84.02861
G1 X73.658 Y79.368 E84.03649
G1 X73.657 Y79.368 E84.03651
G1 X73.715 Y79.222 E84.04043
G1 X73.768 Y79.120 E84.04330
G1 X73.938 Y78.892 E84.05039
G1 X73.950 Y78.881 E84.05080
G1 X74.703 Y78.397 E84.07313
G1 X75.303 Y77.915 E84.09233
G1 X75.653 Y77.611 E84.10389
G1 X76.022 Y77.355 E84.11509
G1 X76.522 Y77.076 E84.12938
G1 X76.871 Y76.835 E84.13996
G1 X77.224 Y76.802 E84.14880
G1 X77.288 Y76.793 E84.15041
G1 X77.309 Y76.792 E84.15094
G1 X78.037 Y76.663 E84.16938
G1 X78.806 Y76.464 E84.18919
G0 F4800 X78.122 Y77.054
G1 F2400 X78.168 Y77.042 E84.19038
G1 X75.412 Y82.278 E84.33798
G1 X75.045 Y82.124 E84.34791
G1 X74.380 Y81.842 E84.36593
G1 X74.082 Y81.723 E84.37393
G1 X73.673 Y81.616 E84.38448
G1 X73.282 Y81.570 E84.39430
G1 X73.096 Y81.340 E84.40168
G1 X73.278 Y81.135 E84.40852
G1 X73.642 Y80.494 E84.42690
G1 X73.924 Y79.809 E84.44538
G1 X74.035 Y79.501 E84.45355
G1 X74.081 Y79.384 E84.45669
G1 X74.107 Y79.335 E84.45807
G1 X74.221 Y79.181 E84.46285
G1 X74.937 Y78.722 E84.48406
G1 X75.560 Y78.222 E84.50399
G1 X75.896 Y77.930 E84.51510
G1 X76.238 Y77.692 E84.52549
G1 X76.734 Y77.416 E84.53965
G1 X77.013 Y77.223 E84.54811
G1 X77.270 Y77.199 E84.55455
G1 X77.321 Y77.192 E84.55583
G1 X77.354 Y77.190 E84.55666
G1 X78.122 Y77.054 E84.57611
G0 F4800 X77.401 Y77.588
G1 F2400 X77.432 Y77.583 E84.57690
G1 X75.229 Y81.767 E84.69485
G1 X75.200 Y81.755 E84.69563
G1 X74.532 Y81.472 E84.71373
G1 X74.207 Y81.342 E84.72246
G1 X73.747 Y81.222 E84.73432
G1 X73.692 Y81.216 E84.73570
G1 X74.002 Y80.670 E84.75136
G1 X74.297 Y79.953 E84.77070
G1 X74.407 Y79.647 E84.77882
G1 X74.445 Y79.550 E84.78142
G1 X74.445 Y79.549 E84.78144
G1 X74.497 Y79.479 E84.78362
G1 X75.171 Y79.047 E84.80359
G1 X75.816 Y78.529 E84.82422
G1 X76.144 Y78.244 E84.83506
G1 X76.444 Y78.035 E84.84418
G1 X76.946 Y77.756 E84.85851
G1 X77.156 Y77.611 E84.86487
G1 X77.316 Y77.596 E84.86888
G1 X77.358 Y77.590 E84.86994
G1 X77.401 Y77.588 E84.87101
G0 F4800 X76.389 Y78.561
G1 F2400 X76.509 Y78.477 E84.87467
G1 X75.046 Y81.256 E84.95301
G1 X74.684 Y81.102 E84.96282
G1 X74.332 Y80.961 E84.97228
G1 X74.301 Y80.953 E84.97308
G1 X74.362 Y80.846 E84.97615
G1 X74.670 Y80.097 E84.99636
G1 X74.779 Y79.793 E85.00441
G1 X74.789 Y79.767 E85.00511
G1 X75.405 Y79.372 E85.02336
G1 X76.073 Y78.836 E85.04472
G1 X76.389 Y78.561 E85.05517
G0 F4800 X75.043 Y80.241
G1 F2400 X75.119 Y80.031 E85.06075
G1 X75.300 Y79.914 E85.06612
G1 X74.864 Y80.743 E85.08949
G1 X74.841 Y80.734 E85.09010
G1 X75.043 Y80.241 E85.10339
G0 F4800 X77.000 Y84.737
G1 F2400 X77.145 Y84.649 E85.10762
G1 X76.798 Y84.860 E85.11775
G1 X77.000 Y84.737 E85.12365
G0 F4800 X84.721 Y81.281
G1 F2400 X84.365 Y81.506 E85.13416
G1 X84.795 Y81.234 E85.14685
G1 X84.721 Y81.281 E85.14904
G0 F4800 X84.490 Y81.664
;TYPE:WALL-INNER
G1 F2400 X84.050 Y82.096 E85.16442
G1 X83.738 Y82.420 E85.17564
G1 X83.514 Y82.601 E85.18282
G1 X83.384 Y82.673 E85.18653
G1 X82.387 Y82.869 E85.21188
G1 X81.962 Y83.045 E85.22335
G1 X81.408 Y83.347 E85.23909
G1 X80.748 Y83.632 E85.25703
G1 X80.267 Y83.853 E85.27023
G1 X79.836 Y84.080 E85.28238
G1 X79.530 Y84.274 E85.29142
G1 X79.449 Y84.303 E85.29357
G1 X78.992 Y84.405 E85.30525
G1 X78.448 Y84.514 E85.31909
G1 X77.826 Y84.650 E85.33497
G1 X77.513 Y84.724 E85.34299
G1 X77.318 Y84.808 E85.34829
G1 X77.226 Y84.834 E85.35067
G1 X76.930 Y85.014 E85.35931
G1 X76.621 Y85.382 E85.37130
G1 X76.626 Y85.787 E85.38140
G1 X76.574 Y85.789 E85.38270
G1 X76.422 Y85.777 E85.38651
G1 X75.928 Y85.681 E85.39906
G1 X75.347 Y85.552 E85.41391
G1 X74.905 Y85.389 E85.42566
G1 X74.332 Y85.147 E85.44117
G1 X73.801 Y84.923 E85.45555
G1 X73.263 Y84.727 E85.46983
G1 X73.025 Y84.646 E85.47610
G1 X72.792 Y84.544 E85.48245
G1 X72.323 Y84.188 E85.49714
G1 X71.959 Y83.940 E85.50812
G1 X71.646 Y83.816 E85.51652
G1 X71.345 Y83.755 E85.52418
G1 X71.257 Y83.714 E85.52660
G1 X70.785 Y83.215 E85.54374
G1 X70.461 Y82.913 E85.55479
G1 X70.349 Y82.698 E85.56083
G1 X70.325 Y82.592 E85.56355
G1 X70.318 Y82.493 E85.56602
G1 X70.355 Y82.233 E85.57257
G1 X70.488 Y81.804 E85.58378
G1 X70.709 Y81.221 E85.59933
G1 X70.890 Y80.644 E85.61441
G1 X71.007 Y80.298 E85.62353
G1 X71.231 Y80.128 E85.63054
G1 X71.480 Y79.848 E85.63989
G1 X71.662 Y79.528 E85.64907
G1 X71.869 Y79.020 E85.66275
G1 X71.969 Y78.741 E85.67015
G1 X72.071 Y78.485 E85.67702
G1 X72.238 Y78.159 E85.68616
G1 X72.588 Y77.693 E85.70070
G1 X72.837 Y77.457 E85.70925
G1 X73.650 Y76.934 E85.73337
G1 X74.151 Y76.533 E85.74938
G1 X74.541 Y76.195 E85.76225
G1 X75.090 Y75.813 E85.77893
G1 X75.571 Y75.546 E85.79266
G1 X76.078 Y75.195 E85.80804
G1 X76.334 Y75.073 E85.81511
G1 X76.389 Y75.060 E85.81652
G1 X76.648 Y75.048 E85.82299
G1 X77.002 Y75.016 E85.83186
G1 X77.078 Y75.003 E85.83378
G1 X77.092 Y75.002 E85.83413
G1 X77.655 Y74.903 E85.84839
G1 X78.452 Y74.697 E85.86893
G1 X78.896 Y74.617 E85.88018
G1 X79.316 Y74.574 E85.89071
G1 X79.872 Y74.619 E85.90463
G1 X80.211 Y74.632 E85.91309
G1 X80.778 Y74.604 E85.92725
G1 X81.458 Y74.554 E85.94426
G1 X82.035 Y74.495 E85.95873
G1 X82.484 Y74.448 E85.96999
G1 X82.918 Y74.432 E85.98082
G1 X83.761 Y74.464 E86.00187
G1 X84.327 Y74.530 E86.01608
G1 X84.885 Y74.619 E86.03018
G1 X85.436 Y74.743 E86.04426
G1 X85.834 Y74.865 E86.05465
G1 X86.719 Y75.030 E86.07710
G1 X87.009 Y75.053 E86.08436
G1 X87.491 Y75.037 E86.09639
G1 X88.013 Y74.986 E86.10947
G1 X88.171 Y74.991 E86.11342
G1 X88.206 Y75.014 E86.11446
G1 X88.234 Y75.062 E86.11585
G1 X88.301 Y75.390 E86.12420
G1 X88.302 Y75.421 E86.12497
G1 X88.295 Y75.528 E86.12765
G1 X88.224 Y75.724 E86.13285
G1 X87.991 Y76.179 E86.14560
G1 X87.771 Y76.658 E86.15875
G1 X87.552 Y77.188 E86.17305
G1 X87.352 Y77.660 E86.18584
G1 X87.116 Y78.139 E86.19916
G1 X86.949 Y78.528 E86.20972
G1 X86.776 Y79.041 E86.22323
G1 X86.603 Y79.539 E86.23638
G1 X86.407 Y79.901 E86.24665
G1 X86.119 Y80.305 E86.25902
G1 X85.866 Y80.607 E86.26885
G1 X85.460 Y80.988 E86.28274
G1 X85.295 Y81.180 E86.28905
G1 X84.981 Y81.371 E86.29822
G1 X84.889 Y81.411 E86.30072
G1 X84.490 Y81.664 E86.31251
G0 F4800 X84.740 Y81.979
;TYPE:WALL-OUTER
G1 F1800 X84.334 Y82.377 E86.32669
G1 X84.008 Y82.716 E86.33842
G1 X83.738 Y82.934 E86.34708
G1 X83.524 Y83.052 E86.35318
G1 X82.500 Y83.255 E86.37922
G1 X82.135 Y83.406 E86.38907
G1 X81.592 Y83.702 E86.40450
G1 X81.419 Y83.784 E86.40927
G1 X80.909 Y83.998 E86.42307
G1 X80.444 Y84.212 E86.43584
G1 X80.040 Y84.425 E86.44723
G1 X79.796 Y84.586 E86.45452
G1 X79.692 Y84.640 E86.45745
G1 X79.553 Y84.691 E86.46114
G1 X78.530 Y84.905 E86.48721
G1 X77.915 Y85.040 E86.50292
G1 X77.640 Y85.105 E86.50997
G1 X77.386 Y85.205 E86.51678
G1 X77.194 Y85.321 E86.52237
G1 X77.023 Y85.525 E86.52901
G1 X77.026 Y85.790 E86.53562
G1 X77.053 Y85.918 E86.53889
G1 X77.052 Y85.986 E86.54058
G1 X77.023 Y86.056 E86.54247
G1 X76.920 Y86.135 E86.54571
G1 X76.731 Y86.185 E86.55059
G1 X76.564 Y86.190 E86.55476
G1 X76.367 Y86.174 E86.55969
G1 X75.856 Y86.074 E86.57268
G1 X75.737 Y86.054 E86.57569
G1 X75.649 Y86.027 E86.57798
G1 X75.235 Y85.937 E86.58855
G1 X74.756 Y85.760 E86.60129
G1 X74.178 Y85.516 E86.61694
G1 X73.655 Y85.296 E86.63109
G1 X73.128 Y85.104 E86.64508
G1 X72.881 Y85.020 E86.65159
G1 X72.599 Y84.896 E86.65928
G1 X72.365 Y84.737 E86.66633
G1 X72.246 Y84.636 E86.67023
G1 X72.228 Y84.625 E86.67075
G1 X71.777 Y84.298 E86.68465
G1 X71.532 Y84.201 E86.69122
G1 X71.218 Y84.138 E86.69921
G1 X71.045 Y84.056 E86.70399
G1 X70.959 Y83.989 E86.70671
G1 X70.502 Y83.498 E86.72344
G1 X70.164 Y83.184 E86.73495
G1 X70.134 Y83.149 E86.73610
G1 X69.969 Y82.835 E86.74495
G1 X69.929 Y82.654 E86.74957
G1 X69.915 Y82.481 E86.75390
G1 X69.964 Y82.144 E86.76239
G1 X70.331 Y81.090 E86.79023
G1 X70.511 Y80.517 E86.80522
G1 X70.649 Y80.106 E86.81603
G1 X70.724 Y80.010 E86.81907
G1 X70.964 Y79.829 E86.82657
G1 X71.151 Y79.617 E86.83362
G1 X71.305 Y79.347 E86.84137
G1 X71.543 Y78.747 E86.85748
G1 X71.706 Y78.321 E86.86885
G1 X71.895 Y77.953 E86.87917
G1 X72.052 Y77.715 E86.88629
G1 X72.388 Y77.324 E86.89915
G1 X72.702 Y77.061 E86.90936
G1 X73.014 Y76.861 E86.91861
G1 X73.548 Y76.517 E86.93445
G1 X74.092 Y76.046 E86.95240
G1 X74.413 Y75.790 E86.96264
G1 X74.874 Y75.476 E86.97656
G1 X75.360 Y75.206 E86.99043
G1 X75.874 Y74.850 E87.00602
G1 X76.096 Y74.733 E87.01228
G1 X76.336 Y74.661 E87.01853
G1 X76.790 Y74.641 E87.02987
G1 X77.581 Y74.510 E87.04987
G1 X77.858 Y74.454 E87.05692
G1 X78.360 Y74.307 E87.06997
G1 X78.840 Y74.221 E87.08213
G1 X79.312 Y74.173 E87.09397
G1 X79.895 Y74.220 E87.10856
G1 X80.208 Y74.231 E87.11637
G1 X80.753 Y74.205 E87.12998
G1 X81.423 Y74.155 E87.14674
G1 X82.457 Y74.049 E87.17267
G1 X82.918 Y74.031 E87.18418
G1 X83.784 Y74.065 E87.20580
G1 X84.377 Y74.133 E87.22069
G1 X84.957 Y74.225 E87.23534
G1 X85.547 Y74.358 E87.25042
G1 X85.929 Y74.476 E87.26040
G1 X86.772 Y74.633 E87.28179
G1 X87.018 Y74.652 E87.28794
G1 X87.465 Y74.638 E87.29910
G1 X88.001 Y74.585 E87.31253
G1 X88.260 Y74.593 E87.31900
G1 X88.327 Y74.614 E87.32075
G1 X88.473 Y74.711 E87.32512
G1 X88.519 Y74.756 E87.32673
G1 X88.613 Y74.919 E87.33142
G1 X88.700 Y75.345 E87.34227
G1 X88.703 Y75.420 E87.34414
G1 X88.684 Y75.630 E87.34940
G1 X88.592 Y75.881 E87.35607
G1 X88.351 Y76.354 E87.36931
G1 X88.138 Y76.818 E87.38204
G1 X87.919 Y77.345 E87.39628
G1 X87.711 Y77.837 E87.40960
G1 X87.479 Y78.306 E87.42266
G1 X87.154 Y79.172 E87.44573
G1 X86.976 Y79.685 E87.45928
G1 X86.744 Y80.118 E87.47153
G1 X86.434 Y80.553 E87.48485
G1 X86.161 Y80.879 E87.49546
G1 X85.749 Y81.265 E87.50954
G1 X85.562 Y81.483 E87.51671
G1 X85.159 Y81.730 E87.52850
G1 X85.077 Y81.766 E87.53073
G1 X84.740 Y81.979 E87.54068
G0 F4800 X83.604 Y82.423
;TYPE:SKIN
G1 F2100 X86.531 Y79.497 E87.64392
G0 F4800 X86.827 Y78.635
G1 F2100 X82.745 Y82.717 E87.78792
G0 F4800 X81.923 Y82.973
G1 F2100 X87.284 Y77.612 E87.97705
G0 F4800 X87.690 Y76.641
G1 F2100 X80.816 Y83.514 E88.21953
G0 F4800 X79.688 Y84.077
G1 F2100 X88.192 Y75.573 E88.51953
G0 F4800 X88.128 Y75.071
G1 F2100 X78.848 Y84.351 E88.84691
G0 F4800 X78.134 Y84.499
G1 F2100 X87.520 Y75.114 E89.17801
G0 F4800 X86.941 Y75.127
G1 F2100 X77.372 Y84.696 E89.51558
G0 F4800 X76.542 Y85.526
G1 F2100 X76.381 Y85.687 E89.52126
G0 F4800 X75.909 Y85.593
G1 F2100 X86.443 Y75.060 E89.89285
G0 F4800 X85.965 Y74.971
G1 F2100 X75.445 Y85.492 E90.26399
G0 F4800 X75.024 Y85.347
G1 F2100 X85.519 Y74.852 E90.63423
G0 F4800 X85.064 Y74.741
G1 F2100 X76.593 Y83.213 E90.93309
G0 F4800 X75.830 Y83.976
G1 F2100 X74.623 Y85.183 E90.97567
G0 F4800 X74.224 Y85.015
G1 F2100 X75.401 Y83.838 E91.01719
G0 F4800 X74.975 Y83.699
G1 F2100 X73.826 Y84.847 E91.05771
G0 F4800 X73.412 Y84.696
G1 F2100 X74.577 Y83.531 E91.09881
G0 F4800 X74.180 Y83.362
G1 F2100 X72.996 Y84.546 E91.14057
G0 F4800 X72.644 Y84.333
G1 F2100 X73.782 Y83.195 E91.18072
G0 F4800 X73.346 Y83.065
G1 F2100 X72.320 Y84.091 E91.21692
G0 F4800 X72.095 Y83.751
G1 F2100 X72.839 Y83.006 E91.24318
G0 F4800 X72.168 Y82.546
G1 F2100 X71.189 Y83.525 E91.27772
G0 F4800 X70.914 Y83.234
G1 F2100 X71.915 Y82.233 E91.31303
G0 F4800 X71.675 Y81.907
G1 F2100 X70.625 Y82.957 E91.35007
G0 F4800 X70.410 Y82.607
G1 F2100 X71.472 Y81.545 E91.38754
G0 F4800 X70.956 Y81.495
G1 F2100 X70.536 Y81.916 E91.40237
G0 F4800 X77.221 Y82.019
G1 F2100 X84.587 Y74.652 E91.66224
G0 F4800 X84.091 Y74.582
G1 F2100 X77.848 Y80.825 E91.88248
G0 F4800 X78.476 Y79.632
G1 F2100 X83.572 Y74.536 E92.06226
G0 F4800 X83.027 Y74.515
G1 F2100 X79.105 Y78.437 E92.20062
G0 F4800 X79.733 Y77.244
G1 F2100 X82.445 Y74.532 E92.29629
G0 F4800 X81.814 Y74.597
G1 F2100 X80.361 Y76.050 E92.34755
G0 F4800 X80.989 Y74.857
G1 F2100 X81.193 Y74.652 E92.35476
G0 F4800 X78.455 Y74.910
G1 F2100 X78.068 Y75.128 E92.36584
G1 X77.462 Y75.357 E92.38200
G1 X77.081 Y75.579 E92.39300
G1 X76.798 Y75.688 E92.40057
G1 X76.475 Y75.783 E92.40897
G1 X76.172 Y75.933 E92.41740
G1 X75.966 Y76.066 E92.42352
G1 X75.714 Y76.293 E92.43198
G1 X75.344 Y76.631 E92.44448
G1 X74.920 Y76.963 E92.45791
G1 X74.544 Y77.346 E92.47130
G1 X74.117 Y77.729 E92.48561
G1 X73.692 Y78.166 E92.50081
G1 X73.397 Y78.595 E92.51380
G1 X73.131 Y79.046 E92.52686
G1 X72.971 Y79.368 E92.53583
G1 X72.898 Y79.456 E92.53868
G1 X72.821 Y79.599 E92.54274
G1 X72.703 Y79.747 E92.54746
G1 X72.415 Y79.941 E92.55612
G1 X72.293 Y80.055 E92.56028
G1 X72.154 Y80.253 E92.56632
G1 X71.816 Y80.597 E92.57835
G1 X71.642 Y80.743 E92.58402
G1 X71.452 Y80.938 E92.59081
G1 X71.388 Y81.063 E92.59431
G1 X71.356 Y81.205 E92.59794
G1 X71.340 Y81.485 E92.60494
G1 X71.342 Y81.514 E92.60566
G1 X71.349 Y81.544 E92.60643
G1 X70.758 Y81.657 E92.62144
G1 X70.898 Y81.286 E92.63133
G1 X71.081 Y80.704 E92.64655
G1 X71.080 Y80.704 E92.64658
G1 X71.176 Y80.420 E92.65405
G1 X71.367 Y80.276 E92.66002
G1 X71.643 Y79.965 E92.67039
G1 X71.842 Y79.616 E92.68041
G1 X72.056 Y79.092 E92.69453
G1 X72.155 Y78.815 E92.70187
G1 X72.255 Y78.565 E92.70859
G1 X72.408 Y78.266 E92.71697
G1 X72.737 Y77.827 E92.73065
G1 X72.963 Y77.614 E92.73840
G1 X73.767 Y77.097 E92.76224
G1 X74.279 Y76.687 E92.77861
G1 X74.665 Y76.352 E92.79135
G1 X75.193 Y75.985 E92.80740
G1 X75.677 Y75.716 E92.82121
G1 X76.175 Y75.371 E92.83632
G1 X76.401 Y75.263 E92.84257
G1 X76.418 Y75.259 E92.84300
G1 X76.662 Y75.248 E92.84910
G1 X77.028 Y75.214 E92.85827
G1 X77.103 Y75.202 E92.86016
G1 X77.117 Y75.201 E92.86051
G1 X77.697 Y75.099 E92.87520
G1 X78.498 Y74.892 E92.89584
G1 X78.534 Y74.886 E92.89675
G1 X78.455 Y74.910 E92.89881
G0 F4800 X73.382 Y77.911
G1 F2100 X73.060 Y78.380 E92.91300
G1 X72.779 Y78.855 E92.92677
G1 X72.634 Y79.148 E92.93492
G1 X72.565 Y79.231 E92.93761
G1 X72.486 Y79.378 E92.94178
G1 X72.429 Y79.450 E92.94407
G1 X72.309 Y79.530 E92.94767
G1 X72.430 Y79.235 E92.95562
G1 X72.532 Y78.950 E92.96317
G1 X72.619 Y78.731 E92.96905
G1 X72.748 Y78.479 E92.97611
G1 X73.037 Y78.093 E92.98814
G1 X73.211 Y77.929 E92.99410
G1 X73.619 Y77.668 E93.00619
G1 X73.382 Y77.911 E93.01465
G0 F4800 X72.233 Y82.777
G1 F2100 X72.126 Y82.684 E93.01819
G1 X72.509 Y83.014 E93.03080
G1 X72.628 Y83.076 E93.03415
G1 X72.519 Y83.019 E93.03722
G1 X72.184 Y83.851 E93.05959
G1 X72.266 Y83.907 E93.06207
G1 X72.053 Y83.762 E93.06849
G1 X71.703 Y83.624 E93.07788
G1 X71.406 Y83.563 E93.08544
G1 X71.376 Y83.549 E93.08627
G1 X70.926 Y83.073 E93.10261
G1 X71.367 Y83.540 E93.11863
G1 X72.233 Y82.777 E93.14742
;LAYER:10
G0 F4800 X74.322 Y84.029 Z1.800
;TYPE:FILL
G1 F2400 X83.801 Y74.550 E93.48182
G1 X74.322 Y84.029 E93.81622
G0 F4800 X77.081 Y84.622
G1 F2400 X71.943 Y79.484 E93.99747
G1 X77.081 Y84.622 E94.17873
G0 F4800 X83.770 Y76.230
G1 F2400 X82.112 Y74.572 E94.23722
G1 X83.770 Y76.230 E94.29571
G0 F4800 X84.259 Y74.530
;TYPE:WALL-INNER
G1 F2400 X84.840 Y74.638 E94.31045
G1 X85.401 Y74.774 E94.32485
G1 X85.920 Y74.934 E94.33840
G1 X85.993 Y74.964 E94.34037
G1 X86.510 Y75.088 E94.35363
G1 X86.693 Y75.164 E94.35857
G1 X86.838 Y75.170 E94.36219
G1 X87.231 Y75.216 E94.37206
G1 X87.302 Y75.210 E94.37384
G1 X87.369 Y75.212 E94.37551
G1 X87.938 Y75.170 E94.38975
G1 X87.967 Y75.168 E94.39047
G1 X88.106 Y75.174 E94.39394
G1 X88.140 Y75.313 E94.39751
G1 X88.144 Y75.376 E94.39909
G1 X88.143 Y75.389 E94.39941
G1 X88.015 Y75.799 E94.41013
G1 X87.564 Y76.710 E94.43548
G1 X87.332 Y77.239 E94.44989
G1 X87.022 Y77.908 E94.46829
G1 X86.766 Y78.530 E94.48506
G1 X86.619 Y79.063 E94.49886
G1 X86.527 Y79.385 E94.50721
G1 X86.328 Y79.808 E94.51887
G1 X86.007 Y80.306 E94.53365
G1 X85.874 Y80.458 E94.53869
G1 X85.805 Y80.496 E94.54065
G1 X85.411 Y80.329 E94.55133
G1 X85.013 Y81.125 E94.57353
G1 X85.024 Y81.146 E94.57412
G1 X84.570 Y81.467 E94.58799
G1 X84.254 Y81.770 E94.59891
G1 X83.897 Y82.198 E94.61281
G1 X83.556 Y82.531 E94.62470
G1 X83.456 Y82.606 E94.62782
G1 X83.361 Y82.654 E94.63048
G1 X82.379 Y82.863 E94.65552
G1 X81.990 Y83.039 E94.66617
G1 X81.529 Y83.316 E94.67959
G1 X80.750 Y83.653 E94.70076
G1 X80.282 Y83.858 E94.71351
G1 X79.793 Y84.077 E94.72687
G1 X79.373 Y84.278 E94.73849
G1 X78.433 Y84.481 E94.76248
G1 X77.933 Y84.566 E94.77513
G1 X77.020 Y84.715 E94.79820
G1 X76.579 Y84.828 E94.80956
G1 X76.092 Y84.870 E94.82175
G1 X75.723 Y85.462 E94.83915
G1 X75.731 Y85.488 E94.83983
G1 X75.290 Y85.395 E94.85108
G1 X75.074 Y85.321 E94.85677
G1 X74.193 Y84.950 E94.88062
G1 X73.717 Y84.746 E94.89353
G1 X72.939 Y84.417 E94.91461
G1 X72.392 Y84.027 E94.93136
G1 X72.113 Y83.818 E94.94006
G1 X71.779 Y83.639 E94.94951
G1 X71.338 Y83.483 E94.96118
G1 X70.761 Y82.889 E94.98184
G1 X70.522 Y82.685 E94.98968
G1 X70.451 Y82.598 E94.99248
G1 X70.437 Y82.562 E94.99344
G1 X70.418 Y82.446 E94.99637
G1 X70.430 Y82.288 E95.00033
G1 X70.548 Y81.865 E95.01128
G1 X70.768 Y81.291 E95.02662
G1 X71.012 Y80.668 E95.04331
G1 X71.086 Y80.499 E95.04791
G1 X71.141 Y80.435 E95.05001
G1 X71.334 Y80.293 E95.05599
G1 X71.602 Y80.037 E95.06524
G1 X71.824 Y79.608 E95.07728
G1 X71.929 Y79.253 E95.08652
G1 X72.101 Y78.703 E95.10089
G1 X72.193 Y78.477 E95.10698
G1 X72.252 Y78.360 E95.11025
G1 X72.509 Y77.974 E95.12182
G1 X72.737 Y77.707 E95.13058
G1 X73.007 Y77.474 E95.13947
G1 X73.435 Y77.204 E95.15210
G1 X73.856 Y76.917 E95.16481
G1 X74.300 Y76.509 E95.17985
G1 X74.693 Y76.167 E95.19284
G1 X75.086 Y75.884 E95.20492
G1 X75.527 Y75.630 E95.21762
G1 X75.947 Y75.336 E95.23041
G1 X76.224 Y75.168 E95.23849
G1 X76.364 Y75.123 E95.24216
G1 X76.489 Y75.124 E95.24528
G1 X77.001 Y75.081 E95.25809
G1 X77.599 Y74.956 E95.27333
G1 X78.523 Y74.688 E95.29733
G1 X79.075 Y74.590 E95.31132
G1 X79.269 Y74.568 E95.31619
G1 X79.664 Y74.604 E95.32608
G1 X79.823 Y74.638 E95.33014
G1 X80.172 Y74.645 E95.33884
G1 X80.800 Y74.616 E95.35453
G1 X81.355 Y74.575 E95.36841
G1 X82.026 Y74.500 E95.38525
G1 X82.572 Y74.444 E95.39894
G1 X83.155 Y74.429 E95.41349
G1 X83.709 Y74.460 E95.42733
G1 X84.259 Y74.530 E95.44116
G0 F4800 X84.323 Y74.134
;TYPE:WALL-OUTER
G1 F1800 X84.922 Y74.247 E95.45637
G1 X85.500 Y74.386 E95.47120
G1 X86.057 Y74.558 E95.48574
G1 X86.104 Y74.577 E95.48700
G1 X86.254 Y74.603 E95.49080
G1 X86.640 Y74.709 E95.50079
G1 X86.781 Y74.767 E95.50459
G1 X87.237 Y74.814 E95.51602
G1 X87.289 Y74.809 E95.51733
G1 X87.360 Y74.811 E95.51910
G1 X87.908 Y74.771 E95.53281
G1 X87.955 Y74.767 E95.53398
G1 X88.212 Y74.779 E95.54040
G1 X88.271 Y74.805 E95.54201
G1 X88.339 Y74.819 E95.54374
G1 X88.357 Y74.828 E95.54424
G1 X88.443 Y74.914 E95.54728
G1 X88.474 Y74.980 E95.54910
G1 X88.537 Y75.250 E95.55601
G1 X88.544 Y75.371 E95.55903
G1 X88.540 Y75.457 E95.56118
G1 X88.429 Y75.841 E95.57115
G1 X88.382 Y75.958 E95.57430
G1 X87.926 Y76.881 E95.59998
G1 X87.697 Y77.405 E95.61424
G1 X87.389 Y78.067 E95.63246
G1 X87.145 Y78.660 E95.64845
G1 X87.004 Y79.172 E95.66170
G1 X86.903 Y79.527 E95.67091
G1 X86.679 Y80.002 E95.68401
G1 X86.444 Y80.377 E95.69505
G1 X86.330 Y80.543 E95.70007
G1 X86.169 Y80.735 E95.70632
G1 X86.097 Y80.792 E95.70861
G1 X85.944 Y80.877 E95.71298
G1 X85.805 Y80.930 E95.71669
G1 X85.601 Y80.844 E95.72221
G1 X85.460 Y81.125 E95.73005
G1 X85.495 Y81.194 E95.73198
G1 X85.480 Y81.232 E95.73300
G1 X85.355 Y81.387 E95.73797
G1 X85.241 Y81.489 E95.74179
G1 X84.824 Y81.778 E95.75444
G1 X84.547 Y82.043 E95.76401
G1 X84.190 Y82.472 E95.77793
G1 X83.818 Y82.834 E95.79088
G1 X83.669 Y82.946 E95.79553
G1 X83.499 Y83.032 E95.80028
G1 X82.983 Y83.152 E95.81349
G1 X82.502 Y83.246 E95.82572
G1 X82.176 Y83.394 E95.83465
G1 X81.718 Y83.670 E95.84799
G1 X81.403 Y83.821 E95.85670
G1 X80.905 Y84.022 E95.87010
G1 X80.444 Y84.224 E95.88265
G1 X79.961 Y84.440 E95.89585
G1 X79.509 Y84.657 E95.90836
G1 X78.500 Y84.876 E95.93411
G1 X78.000 Y84.961 E95.94677
G1 X77.102 Y85.107 E95.96946
G1 X76.641 Y85.225 E95.98133
G1 X76.325 Y85.251 E95.98924
G1 X76.158 Y85.519 E95.99712
G1 X76.248 Y85.812 E96.00476
G1 X76.300 Y85.917 E96.00769
G1 X76.145 Y85.931 E96.01157
G1 X75.879 Y85.919 E96.01821
G1 X75.765 Y85.895 E96.02112
G1 X75.703 Y85.891 E96.02267
G1 X75.179 Y85.780 E96.03603
G1 X74.615 Y85.570 E96.05104
G1 X74.034 Y85.317 E96.06685
G1 X73.562 Y85.115 E96.07966
G1 X72.751 Y84.771 E96.10163
G1 X72.486 Y84.604 E96.10944
G1 X72.034 Y84.254 E96.12370
G1 X71.901 Y84.158 E96.12780
G1 X71.622 Y84.008 E96.13570
G1 X71.341 Y83.918 E96.14306
G1 X71.163 Y83.848 E96.14783
G1 X70.913 Y83.622 E96.15624
G1 X70.486 Y83.180 E96.17157
G1 X70.240 Y82.971 E96.17962
G1 X70.102 Y82.804 E96.18502
G1 X70.049 Y82.669 E96.18864
G1 X70.016 Y82.460 E96.19392
G1 X70.034 Y82.222 E96.19987
G1 X70.168 Y81.741 E96.21233
G1 X70.396 Y81.145 E96.22825
G1 X70.638 Y80.525 E96.24485
G1 X70.752 Y80.274 E96.25173
G1 X70.868 Y80.138 E96.25618
G1 X71.077 Y79.986 E96.26263
G1 X71.281 Y79.790 E96.26969
G1 X71.449 Y79.464 E96.27884
G1 X71.545 Y79.140 E96.28727
G1 X71.639 Y78.826 E96.29544
G1 X71.836 Y78.297 E96.30952
G1 X71.970 Y78.050 E96.31653
G1 X72.113 Y77.834 E96.32300
G1 X72.456 Y77.422 E96.33637
G1 X72.772 Y77.151 E96.34675
G1 X73.224 Y76.864 E96.36011
G1 X73.605 Y76.605 E96.37160
G1 X74.031 Y76.213 E96.38604
G1 X74.442 Y75.856 E96.39962
G1 X74.872 Y75.546 E96.41284
G1 X75.312 Y75.292 E96.42552
G1 X75.725 Y75.003 E96.43809
G1 X76.059 Y74.801 E96.44783
G1 X76.302 Y74.723 E96.45420
G1 X76.476 Y74.724 E96.45854
G1 X76.937 Y74.686 E96.47007
G1 X77.508 Y74.567 E96.48462
G1 X77.872 Y74.472 E96.49401
G1 X78.422 Y74.300 E96.50838
G1 X79.011 Y74.195 E96.52331
G1 X79.271 Y74.166 E96.52983
G1 X79.716 Y74.207 E96.54098
G1 X79.869 Y74.239 E96.54488
G1 X80.167 Y74.245 E96.55232
G1 X80.776 Y74.217 E96.56752
G1 X81.318 Y74.176 E96.58108
G1 X81.986 Y74.103 E96.59784
G1 X82.547 Y74.045 E96.61191
G1 X83.155 Y74.028 E96.62709
G1 X83.749 Y74.062 E96.64193
G1 X84.323 Y74.134 E96.65636
G0 F4800 X84.569 Y74.670
;TYPE:SKIN
G1 F2100 X87.210 Y77.310 E96.74951
G0 F4800 X87.031 Y77.697
G1 F2100 X83.913 Y74.579 E96.85951
G0 F4800 X83.718 Y74.950
G1 F2100 X86.859 Y78.091 E96.97031
G0 F4800 X86.694 Y78.492
G1 F2100 X83.524 Y75.321 E97.08216
G0 F4800 X83.328 Y75.692
G1 F2100 X86.571 Y78.935 E97.19657
G0 F4800 X86.443 Y79.372
G1 F2100 X83.134 Y76.063 E97.31330
G0 F4800 X82.939 Y76.434
G1 F2100 X86.262 Y79.757 E97.43053
G0 F4800 X86.042 Y80.103
G1 F2100 X82.744 Y76.805 E97.54687
G0 F4800 X82.549 Y77.175
G1 F2100 X85.767 Y80.393 E97.66040
G0 F4800 X85.260 Y80.451
G1 F2100 X82.355 Y77.546 E97.76288
G0 F4800 X82.160 Y77.917
G1 F2100 X85.071 Y80.828 E97.86557
G0 F4800 X84.847 Y81.170
G1 F2100 X81.965 Y78.288 E97.96724
G0 F4800 X81.770 Y78.659
G1 F2100 X84.516 Y81.404 E98.06410
G0 F4800 X84.227 Y81.682
G1 F2100 X81.576 Y79.030 E98.15764
G0 F4800 X81.380 Y79.401
G1 F2100 X83.967 Y81.987 E98.24888
G0 F4800 X83.695 Y82.281
G1 F2100 X81.186 Y79.772 E98.33739
G0 F4800 X85.295 Y74.830
G1 F2100 X87.384 Y76.919 E98.41109
G0 F4800 X87.563 Y76.532
G1 F2100 X86.103 Y75.072 E98.46259
G0 F4800 X86.848 Y75.252
G1 F2100 X87.750 Y76.153 E98.49440
G0 F4800 X87.937 Y75.775
G1 F2100 X87.711 Y75.266 E98.51166
G1 X88.072 Y75.344 E98.52087
G0 F4800 X80.991 Y80.142
G1 F2100 X83.394 Y82.545 E98.60564
G0 F4800 X82.942 Y82.659
G1 F2100 X80.796 Y80.514 E98.68133
G0 F4800 X80.601 Y80.884
G1 F2100 X82.476 Y82.759 E98.74748
G0 F4800 X82.066 Y82.915
G1 F2100 X80.407 Y81.255 E98.80602
G0 F4800 X80.212 Y81.626
G1 F2100 X81.703 Y83.117 E98.85862
G0 F4800 X81.332 Y83.312
G1 F2100 X80.017 Y81.997 E98.90501
G0 F4800 X79.822 Y82.368
G1 F2100 X80.938 Y83.484 E98.94438
G0 F4800 X80.544 Y83.655
G1 F2100 X79.628 Y82.739 E98.97669
G0 F4800 X79.432 Y83.109
G1 F2100 X80.150 Y83.827 E99.00202
G0 F4800 X79.183 Y83.704
G1 F2100 X79.008 Y83.318 E99.01260
G1 X79.310 Y83.643 E99.02366
